wangyizhou33/embodi-vis/go2_motor_states.csv
time_ns,q0,q1,q2,q3,q4,q5,q6,q7,q8,q9,q10,q11
1760679849770795524,-0.134908,1.2237,-2.72301,0.134969,1.22366,-2.72299,-0.480441,1.68266,-2.72415,0.480439,1.68213,-2.72418
1760679849774088159,-0.134908,1.2237,-2.72301,0.134969,1.22366,-2.72299,-0.480441,1.68266,-2.72415,0.480439,1.68213,-2.72418
1760679849774178991,-0.134907,1.2237,-2.72301,0.134967,1.22367,-2.72299,-0.480442,1.68265,-2.72415,0.48044,1.68213,-2.72418
1760679849775281027,-0.134906,1.2237,-2.72301,0.134966,1.22367,-2.72299,-0.480442,1.68265,-2.72415,0.480441,1.68213,-2.72418
1760679849776859236,-0.134906,1.2237,-2.72301,0.134966,1.22367,-2.72299,-0.480442,1.68265,-2.72415,0.480441,1.68213,-2.72418
1760679849777944010,-0.134906,1.2237,-2.72301,0.134966,1.22367,-2.72299,-0.480442,1.68265,-2.72415,0.480441,1.68213,-2.72418
1760679849779279148,-0.134905,1.2237,-2.72301,0.134965,1.22367,-2.72299,-0.480443,1.68265,-2.72415,0.480442,1.68212,-2.72418
1760679849781580726,-0.134905,1.2237,-2.72301,0.134965,1.22367,-2.72299,-0.480443,1.68265,-2.72415,0.480442,1.68212,-2.72418
1760679849784761960,-0.134904,1.2237,-2.72301,0.134964,1.22367,-2.72299,-0.480444,1.68265,-2.72415,0.480442,1.68212,-2.72418
1760679849785479800,-0.134904,1.2237,-2.72301,0.134963,1.22367,-2.72299,-0.480444,1.68265,-2.72415,0.480443,1.68212,-2.72418
1760679849786722212,-0.134903,1.2237,-2.72301,0.134962,1.22367,-2.72299,-0.480444,1.68265,-2.72415,0.480443,1.68212,-2.72418
1760679849787784123,-0.134903,1.2237,-2.72301,0.134962,1.22367,-2.72299,-0.480444,1.68265,-2.72415,0.480443,1.68212,-2.72418
1760679849791038936,-0.134902,1.2237,-2.72301,0.134961,1.22367,-2.72299,-0.480445,1.68264,-2.72415,0.480444,1.68212,-2.72418
1760679849792125133,-0.134901,1.2237,-2.72301,0.13496,1.22367,-2.72299,-0.480446,1.68264,-2.72415,0.480445,1.68212,-2.72418
1760679849793223834,-0.134901,1.2237,-2.72301,0.134959,1.22367,-2.72299,-0.480446,1.68264,-2.72415,0.480445,1.68211,-2.72418
1760679849794318657,-0.134901,1.2237,-2.72301,0.134959,1.22367,-2.72299,-0.480446,1.68264,-2.72415,0.480445,1.68211,-2.72418
1760679849795418028,-0.134901,1.2237,-2.72301,0.134959,1.22367,-2.72299,-0.480446,1.68264,-2.72415,0.480445,1.68211,-2.72418
1760679849796517450,-0.1349,1.22371,-2.72301,0.134958,1.22367,-2.72299,-0.480447,1.68264,-2.72415,0.480446,1.68211,-2.72418
1760679849797622252,-0.1349,1.22371,-2.72301,0.134958,1.22367,-2.72299,-0.480447,1.68264,-2.72415,0.480446,1.68211,-2.72418
1760679849799151879,-0.134899,1.22371,-2.72301,0.134958,1.22367,-2.72299,-0.480447,1.68264,-2.72415,0.480446,1.68211,-2.72418
1760679849804175131,-0.134897,1.22371,-2.72301,0.134955,1.22367,-2.72299,-0.480448,1.68264,-2.72414,0.480448,1.68211,-2.72418
1760679849805237933,-0.134897,1.22371,-2.72301,0.134954,1.22367,-2.72299,-0.480449,1.68263,-2.72414,0.480448,1.68211,-2.72418
1760679849806359307,-0.134897,1.22371,-2.72301,0.134954,1.22367,-2.72299,-0.480449,1.68263,-2.72414,0.480448,1.68211,-2.72418
1760679849807470020,-0.134897,1.22371,-2.72301,0.134954,1.22367,-2.72299,-0.480449,1.68263,-2.72414,0.480448,1.68211,-2.72418
1760679849808560575,-0.134896,1.22371,-2.72301,0.134954,1.22367,-2.72299,-0.480449,1.68263,-2.72414,0.480449,1.68211,-2.72418
1760679849809661620,-0.134896,1.22371,-2.72301,0.134953,1.22367,-2.72299,-0.48045,1.68263,-2.72414,0.480449,1.6821,-2.72418
1760679849810772363,-0.134896,1.22371,-2.72301,0.134953,1.22367,-2.72299,-0.48045,1.68263,-2.72414,0.480449,1.6821,-2.72418
1760679849811878828,-0.134895,1.22371,-2.72301,0.134952,1.22367,-2.72299,-0.48045,1.68263,-2.72414,0.480449,1.6821,-2.72418
1760679849812973842,-0.134895,1.22371,-2.72301,0.134951,1.22367,-2.72299,-0.480451,1.68263,-2.72414,0.48045,1.6821,-2.72418
1760679849814072312,-0.134895,1.22371,-2.72301,0.134951,1.22367,-2.72299,-0.480451,1.68263,-2.72414,0.48045,1.6821,-2.72418
1760679849815165041,-0.134894,1.22371,-2.72302,0.134951,1.22367,-2.72299,-0.480451,1.68263,-2.72414,0.48045,1.6821,-2.72418
1760679849816271586,-0.134894,1.22371,-2.72302,0.134951,1.22367,-2.72299,-0.480451,1.68263,-2.72414,0.48045,1.6821,-2.72418
1760679849817379444,-0.134893,1.22371,-2.72302,0.13495,1.22367,-2.72299,-0.480452,1.68263,-2.72414,0.480451,1.6821,-2.72418
1760679849818480198,-0.134893,1.22371,-2.72302,0.13495,1.22367,-2.72299,-0.480452,1.68263,-2.72414,0.480451,1.6821,-2.72418
1760679849819584359,-0.134893,1.22371,-2.72302,0.13495,1.22367,-2.72299,-0.480452,1.68263,-2.72414,0.480451,1.6821,-2.72418
1760679849820683500,-0.134893,1.22371,-2.72302,0.134949,1.22367,-2.72299,-0.480452,1.68263,-2.72414,0.480451,1.6821,-2.72418
1760679849821783604,-0.134892,1.22371,-2.72302,0.134948,1.22367,-2.72299,-0.480452,1.68262,-2.72414,0.480452,1.6821,-2.72418
1760679849822893555,-0.134892,1.22371,-2.72302,0.134947,1.22368,-2.72299,-0.480453,1.68262,-2.72414,0.480452,1.6821,-2.72418
1760679849823987737,-0.134892,1.22371,-2.72302,0.134947,1.22368,-2.72299,-0.480453,1.68262,-2.72414,0.480452,1.6821,-2.72418
1760679849825099302,-0.134891,1.22371,-2.72302,0.134947,1.22368,-2.72299,-0.480453,1.68262,-2.72414,0.480453,1.68209,-2.72418
1760679849826159950,-0.134891,1.22371,-2.72302,0.134947,1.22368,-2.72299,-0.480453,1.68262,-2.72414,0.480453,1.68209,-2.72418
1760679849827252088,-0.13489,1.22371,-2.72302,0.134946,1.22368,-2.72299,-0.480454,1.68262,-2.72414,0.480453,1.68209,-2.72418
1760679849828369184,-0.13489,1.22371,-2.72302,0.134946,1.22368,-2.72299,-0.480454,1.68262,-2.72414,0.480453,1.68209,-2.72418
1760679849829466121,-0.13489,1.22371,-2.72302,0.134946,1.22368,-2.72299,-0.480454,1.68262,-2.72414,0.480453,1.68209,-2.72418
1760679849830567797,-0.13489,1.22371,-2.72302,0.134945,1.22368,-2.72299,-0.480454,1.68262,-2.72414,0.480454,1.68209,-2.72417
1760679849831674673,-0.134889,1.22371,-2.72302,0.134944,1.22368,-2.72299,-0.480455,1.68262,-2.72414,0.480454,1.68209,-2.72417
1760679849831718286,-0.134889,1.22371,-2.72302,0.134944,1.22368,-2.72299,-0.480455,1.68262,-2.72414,0.480454,1.68209,-2.72417
1760679849832819100,-0.134889,1.22371,-2.72302,0.134944,1.22368,-2.72299,-0.480455,1.68262,-2.72414,0.480455,1.68209,-2.72417
1760679849833947416,-0.134889,1.22371,-2.72302,0.134944,1.22368,-2.72299,-0.480455,1.68262,-2.72414,0.480455,1.68209,-2.72417
1760679849835034285,-0.134888,1.22371,-2.72302,0.134943,1.22368,-2.723,-0.480456,1.68262,-2.72414,0.480455,1.68209,-2.72417
1760679849836135179,-0.134888,1.22371,-2.72302,0.134943,1.22368,-2.723,-0.480456,1.68262,-2.72414,0.480455,1.68209,-2.72417
1760679849837248798,-0.134888,1.22371,-2.72302,0.134942,1.22368,-2.723,-0.480456,1.68262,-2.72414,0.480456,1.68209,-2.72417
1760679849838351045,-0.134888,1.22371,-2.72302,0.134942,1.22368,-2.723,-0.480456,1.68262,-2.72414,0.480456,1.68209,-2.72417
1760679849839453763,-0.134888,1.22371,-2.72302,0.134942,1.22368,-2.723,-0.480456,1.68262,-2.72414,0.480456,1.68209,-2.72417
1760679849848624709,-0.134885,1.22371,-2.72302,0.134939,1.22368,-2.723,-0.480458,1.68261,-2.72414,0.480458,1.68208,-2.72417
1760679849848648244,-0.134885,1.22371,-2.72302,0.134939,1.22368,-2.723,-0.480458,1.68261,-2.72414,0.480458,1.68208,-2.72417
1760679849849769667,-0.134884,1.22371,-2.72302,0.134938,1.22368,-2.723,-0.480459,1.68261,-2.72414,0.480459,1.68208,-2.72417
1760679849850865041,-0.134884,1.22371,-2.72302,0.134937,1.22368,-2.723,-0.480459,1.68261,-2.72414,0.480459,1.68208,-2.72417
1760679849851967188,-0.134884,1.22371,-2.72302,0.134937,1.22368,-2.723,-0.480459,1.68261,-2.72414,0.480459,1.68208,-2.72417
1760679849853094152,-0.134883,1.22371,-2.72302,0.134936,1.22368,-2.723,-0.480459,1.68261,-2.72414,0.48046,1.68208,-2.72417
1760679849854230855,-0.134883,1.22371,-2.72302,0.134936,1.22368,-2.723,-0.480459,1.68261,-2.72414,0.48046,1.68208,-2.72417
1760679849857472092,-0.134883,1.22371,-2.72302,0.134936,1.22368,-2.723,-0.48046,1.6826,-2.72414,0.48046,1.68208,-2.72417
1760679849857489435,-0.134882,1.22371,-2.72302,0.134935,1.22368,-2.723,-0.48046,1.6826,-2.72414,0.480461,1.68208,-2.72417
1760679849858535155,-0.134882,1.22371,-2.72302,0.134935,1.22368,-2.723,-0.48046,1.6826,-2.72414,0.480461,1.68208,-2.72417
1760679849859632684,-0.134882,1.22371,-2.72302,0.134934,1.22368,-2.723,-0.480461,1.6826,-2.72414,0.480461,1.68207,-2.72417
1760679849860741072,-0.134882,1.22371,-2.72302,0.134934,1.22368,-2.723,-0.480461,1.6826,-2.72414,0.480461,1.68207,-2.72417
1760679849861839101,-0.134881,1.22371,-2.72302,0.134934,1.22368,-2.723,-0.480461,1.6826,-2.72414,0.480462,1.68207,-2.72417
1760679849862953321,-0.134881,1.22371,-2.72302,0.134934,1.22368,-2.723,-0.480461,1.6826,-2.72414,0.480462,1.68207,-2.72417
1760679849864054627,-0.13488,1.22371,-2.72302,0.134933,1.22368,-2.723,-0.480462,1.6826,-2.72414,0.480462,1.68207,-2.72417
1760679849865184606,-0.13488,1.22371,-2.72302,0.134932,1.22368,-2.723,-0.480462,1.6826,-2.72414,0.480463,1.68207,-2.72417
1760679849866289739,-0.13488,1.22371,-2.72302,0.134932,1.22368,-2.723,-0.480462,1.6826,-2.72414,0.480463,1.68207,-2.72417
1760679849867376046,-0.134879,1.22371,-2.72302,0.134932,1.22368,-2.723,-0.480463,1.6826,-2.72414,0.480463,1.68207,-2.72417
1760679849868462403,-0.134879,1.22371,-2.72302,0.134932,1.22368,-2.723,-0.480463,1.6826,-2.72414,0.480463,1.68207,-2.72417
1760679849869551305,-0.134879,1.22371,-2.72302,0.134931,1.22368,-2.723,-0.480463,1.6826,-2.72414,0.480464,1.68207,-2.72417
1760679849870652260,-0.134879,1.22371,-2.72302,0.134931,1.22368,-2.723,-0.480463,1.6826,-2.72414,0.480464,1.68207,-2.72417
1760679849871729900,-0.134878,1.22372,-2.72302,0.13493,1.22368,-2.723,-0.480463,1.6826,-2.72414,0.480464,1.68207,-2.72417
1760679849872847316,-0.134878,1.22372,-2.72302,0.13493,1.22368,-2.723,-0.480463,1.6826,-2.72414,0.480464,1.68207,-2.72417
1760679849873944053,-0.134878,1.22372,-2.72302,0.134929,1.22368,-2.723,-0.480464,1.68259,-2.72414,0.480465,1.68207,-2.72417
1760679849875035039,-0.134877,1.22372,-2.72302,0.134929,1.22368,-2.723,-0.480464,1.68259,-2.72414,0.480465,1.68206,-2.72417
1760679849876129602,-0.134877,1.22372,-2.72302,0.134929,1.22368,-2.723,-0.480464,1.68259,-2.72414,0.480465,1.68206,-2.72417
1760679849877226428,-0.134877,1.22372,-2.72302,0.134928,1.22368,-2.723,-0.480465,1.68259,-2.72414,0.480466,1.68206,-2.72417
1760679849878312906,-0.134877,1.22372,-2.72302,0.134928,1.22368,-2.723,-0.480465,1.68259,-2.72414,0.480466,1.68206,-2.72417
1760679849879407458,-0.134876,1.22372,-2.72302,0.134927,1.22368,-2.723,-0.480465,1.68259,-2.72414,0.480466,1.68206,-2.72417
1760679849880499166,-0.134876,1.22372,-2.72302,0.134927,1.22368,-2.723,-0.480465,1.68259,-2.72414,0.480466,1.68206,-2.72417
1760679849881589280,-0.134876,1.22372,-2.72302,0.134927,1.22368,-2.723,-0.480466,1.68259,-2.72414,0.480467,1.68206,-2.72417
1760679849882678432,-0.134876,1.22372,-2.72302,0.134927,1.22368,-2.723,-0.480466,1.68259,-2.72414,0.480467,1.68206,-2.72417
1760679849883786571,-0.134875,1.22372,-2.72302,0.134926,1.22369,-2.723,-0.480466,1.68259,-2.72414,0.480467,1.68206,-2.72417
1760679849884874661,-0.134875,1.22372,-2.72302,0.134926,1.22369,-2.723,-0.480466,1.68259,-2.72414,0.480467,1.68206,-2.72417
1760679849885968592,-0.134875,1.22372,-2.72302,0.134925,1.22369,-2.723,-0.480466,1.68259,-2.72414,0.480467,1.68206,-2.72417
1760679849887070940,-0.134874,1.22372,-2.72302,0.134925,1.22369,-2.723,-0.480467,1.68259,-2.72414,0.480468,1.68206,-2.72417
1760679849888144954,-0.134874,1.22372,-2.72302,0.134925,1.22369,-2.723,-0.480467,1.68259,-2.72414,0.480468,1.68206,-2.72417
1760679849889246750,-0.134874,1.22372,-2.72302,0.134924,1.22369,-2.723,-0.480467,1.68258,-2.72414,0.480468,1.68206,-2.72417
1760679849890350430,-0.134874,1.22372,-2.72302,0.134924,1.22369,-2.723,-0.480467,1.68258,-2.72414,0.480468,1.68206,-2.72417
1760679849891444501,-0.134873,1.22372,-2.72302,0.134923,1.22369,-2.723,-0.480468,1.68258,-2.72414,0.480469,1.68205,-2.72417
1760679849892544404,-0.134873,1.22372,-2.72302,0.134923,1.22369,-2.723,-0.480468,1.68258,-2.72414,0.480469,1.68205,-2.72417
1760679849893657652,-0.134873,1.22372,-2.72302,0.134923,1.22369,-2.723,-0.480468,1.68258,-2.72414,0.480469,1.68205,-2.72417
1760679849894739391,-0.134873,1.22372,-2.72302,0.134923,1.22369,-2.723,-0.480468,1.68258,-2.72414,0.480469,1.68205,-2.72417
1760679849895840506,-0.134872,1.22372,-2.72302,0.134922,1.22369,-2.723,-0.480469,1.68258,-2.72414,0.48047,1.68205,-2.72417
1760679849896933375,-0.134872,1.22372,-2.72302,0.134921,1.22369,-2.723,-0.480469,1.68258,-2.72414,0.48047,1.68205,-2.72417
1760679849898026826,-0.134872,1.22372,-2.72302,0.134921,1.22369,-2.723,-0.480469,1.68258,-2.72414,0.48047,1.68205,-2.72417
1760679849899141877,-0.134871,1.22372,-2.72302,0.134921,1.22369,-2.723,-0.48047,1.68258,-2.72414,0.480471,1.68205,-2.72417
1760679849900230749,-0.134871,1.22372,-2.72302,0.134921,1.22369,-2.723,-0.48047,1.68258,-2.72414,0.480471,1.68205,-2.72417
1760679849901324209,-0.134871,1.22372,-2.72302,0.13492,1.22369,-2.723,-0.48047,1.68258,-2.72414,0.480471,1.68205,-2.72417
1760679849902419754,-0.134871,1.22372,-2.72302,0.13492,1.22369,-2.723,-0.48047,1.68258,-2.72414,0.480471,1.68205,-2.72417
1760679849903516451,-0.13487,1.22372,-2.72302,0.134919,1.22369,-2.723,-0.48047,1.68258,-2.72414,0.480472,1.68205,-2.72417
1760679849904699090,-0.13487,1.22372,-2.72302,0.134919,1.22369,-2.723,-0.48047,1.68258,-2.72414,0.480472,1.68205,-2.72417
1760679849905845320,-0.13487,1.22372,-2.72302,0.134919,1.22369,-2.723,-0.480471,1.68258,-2.72414,0.480472,1.68205,-2.72417
1760679849906939502,-0.13487,1.22372,-2.72302,0.134919,1.22369,-2.723,-0.480471,1.68258,-2.72414,0.480472,1.68205,-2.72417
1760679849911229526,-0.134869,1.22372,-2.72302,0.134918,1.22369,-2.723,-0.480471,1.68257,-2.72414,0.480473,1.68204,-2.72417
1760679849911994043,-0.134869,1.22372,-2.72302,0.134918,1.22369,-2.723,-0.480471,1.68257,-2.72414,0.480473,1.68204,-2.72417
1760679849913099467,-0.134868,1.22372,-2.72302,0.134917,1.22369,-2.723,-0.480472,1.68257,-2.72414,0.480474,1.68204,-2.72417
1760679849914385432,-0.134868,1.22372,-2.72302,0.134917,1.22369,-2.723,-0.480472,1.68257,-2.72414,0.480474,1.68204,-2.72417
1760679849915273313,-0.134868,1.22372,-2.72302,0.134917,1.22369,-2.723,-0.480472,1.68257,-2.72414,0.480474,1.68204,-2.72417
1760679849916387673,-0.134867,1.22372,-2.72302,0.134915,1.22369,-2.723,-0.480473,1.68257,-2.72414,0.480475,1.68204,-2.72417
1760679849917485532,-0.134867,1.22372,-2.72302,0.134915,1.22369,-2.723,-0.480473,1.68257,-2.72414,0.480475,1.68204,-2.72417
1760679849918581978,-0.134867,1.22372,-2.72302,0.134915,1.22369,-2.723,-0.480473,1.68257,-2.72414,0.480475,1.68204,-2.72417
1760679849919669718,-0.134866,1.22372,-2.72302,0.134914,1.22369,-2.723,-0.480474,1.68257,-2.72414,0.480476,1.68204,-2.72417
1760679849920783367,-0.134866,1.22372,-2.72302,0.134914,1.22369,-2.723,-0.480474,1.68257,-2.72414,0.480476,1.68204,-2.72417
1760679849921882007,-0.134866,1.22372,-2.72302,0.134914,1.22369,-2.723,-0.480474,1.68257,-2.72414,0.480476,1.68204,-2.72417
1760679849922987480,-0.134865,1.22372,-2.72302,0.134913,1.22369,-2.723,-0.480475,1.68256,-2.72414,0.480477,1.68203,-2.72417
1760679849924073467,-0.134865,1.22372,-2.72302,0.134913,1.22369,-2.723,-0.480475,1.68256,-2.72414,0.480477,1.68203,-2.72417
1760679849925151859,-0.134865,1.22372,-2.72302,0.134912,1.22369,-2.72301,-0.480475,1.68256,-2.72414,0.480477,1.68203,-2.72417
1760679849926235551,-0.134865,1.22372,-2.72302,0.134912,1.22369,-2.72301,-0.480475,1.68256,-2.72414,0.480477,1.68203,-2.72417
1760679849927327418,-0.134865,1.22372,-2.72302,0.134912,1.22369,-2.72301,-0.480475,1.68256,-2.72414,0.480477,1.68203,-2.72417
1760679849928416541,-0.134864,1.22372,-2.72302,0.134912,1.22369,-2.72301,-0.480476,1.68256,-2.72414,0.480478,1.68203,-2.72417
1760679849929502597,-0.134864,1.22372,-2.72302,0.134911,1.22369,-2.72301,-0.480476,1.68256,-2.72414,0.480478,1.68203,-2.72417
1760679849930596018,-0.134864,1.22372,-2.72302,0.134911,1.22369,-2.72301,-0.480476,1.68256,-2.72414,0.480478,1.68203,-2.72417
1760679849931686963,-0.134864,1.22372,-2.72302,0.13491,1.22369,-2.72301,-0.480476,1.68256,-2.72414,0.480479,1.68203,-2.72417
1760679849932779723,-0.134863,1.22372,-2.72302,0.13491,1.22369,-2.72301,-0.480477,1.68256,-2.72414,0.480479,1.68203,-2.72417
1760679849933885477,-0.134863,1.22372,-2.72302,0.13491,1.22369,-2.72301,-0.480477,1.68256,-2.72414,0.480479,1.68203,-2.72417
1760679849934981933,-0.134863,1.22372,-2.72303,0.134909,1.22369,-2.72301,-0.480477,1.68256,-2.72414,0.480479,1.68203,-2.72417
1760679849936076455,-0.134863,1.22372,-2.72303,0.134909,1.22369,-2.72301,-0.480477,1.68256,-2.72414,0.480479,1.68203,-2.72417
1760679849937159256,-0.134863,1.22372,-2.72303,0.134909,1.22369,-2.72301,-0.480477,1.68256,-2.72414,0.480479,1.68203,-2.72417
1760679849938255652,-0.134862,1.22372,-2.72303,0.134909,1.22369,-2.72301,-0.480478,1.68256,-2.72413,0.48048,1.68203,-2.72417
1760679849939365443,-0.134862,1.22372,-2.72303,0.134908,1.22369,-2.72301,-0.480478,1.68256,-2.72413,0.48048,1.68203,-2.72417
1760679849940474012,-0.134862,1.22372,-2.72303,0.134908,1.22369,-2.72301,-0.480478,1.68256,-2.72413,0.48048,1.68203,-2.72417
1760679849941550461,-0.134861,1.22372,-2.72303,0.134907,1.22369,-2.72301,-0.480479,1.68255,-2.72413,0.480481,1.68202,-2.72417
1760679849942648780,-0.134861,1.22372,-2.72303,0.134907,1.22369,-2.72301,-0.480479,1.68255,-2.72413,0.480481,1.68202,-2.72417
1760679849943738905,-0.134861,1.22372,-2.72303,0.134907,1.22369,-2.72301,-0.480479,1.68255,-2.72413,0.480481,1.68202,-2.72417
1760679849944800124,-0.13486,1.22372,-2.72303,0.134906,1.22369,-2.72301,-0.480479,1.68255,-2.72413,0.480482,1.68202,-2.72417
1760679849945901269,-0.13486,1.22372,-2.72303,0.134906,1.22369,-2.72301,-0.480479,1.68255,-2.72413,0.480482,1.68202,-2.72417
1760679849946987566,-0.13486,1.22372,-2.72303,0.134906,1.22369,-2.72301,-0.480479,1.68255,-2.72413,0.480482,1.68202,-2.72417
1760679849948085485,-0.13486,1.22372,-2.72303,0.134906,1.2237,-2.72301,-0.48048,1.68255,-2.72413,0.480482,1.68202,-2.72417
1760679849949145723,-0.134859,1.22372,-2.72303,0.134905,1.2237,-2.72301,-0.48048,1.68255,-2.72413,0.480483,1.68202,-2.72416
1760679849950250615,-0.134859,1.22372,-2.72303,0.134905,1.2237,-2.72301,-0.48048,1.68255,-2.72413,0.480483,1.68202,-2.72416
1760679849951334117,-0.134859,1.22372,-2.72303,0.134904,1.2237,-2.72301,-0.480481,1.68255,-2.72413,0.480483,1.68202,-2.72416
1760679849952423209,-0.134859,1.22372,-2.72303,0.134904,1.2237,-2.72301,-0.480481,1.68255,-2.72413,0.480483,1.68202,-2.72416
1760679849953518032,-0.134859,1.22372,-2.72303,0.134904,1.2237,-2.72301,-0.480481,1.68255,-2.72413,0.480484,1.68202,-2.72416
1760679849954689080,-0.134859,1.22372,-2.72303,0.134904,1.2237,-2.72301,-0.480481,1.68255,-2.72413,0.480484,1.68202,-2.72416
1760679849955685527,-0.134858,1.22372,-2.72303,0.134903,1.2237,-2.72301,-0.480482,1.68255,-2.72413,0.480484,1.68202,-2.72416
1760679849956796200,-0.134858,1.22372,-2.72303,0.134903,1.2237,-2.72301,-0.480482,1.68255,-2.72413,0.480484,1.68202,-2.72416
1760679849957903607,-0.134858,1.22372,-2.72303,0.134903,1.2237,-2.72301,-0.480482,1.68254,-2.72413,0.480485,1.68201,-2.72416
1760679849959029028,-0.134857,1.22373,-2.72303,0.134902,1.2237,-2.72301,-0.480483,1.68254,-2.72413,0.480485,1.68201,-2.72416
1760679849960167243,-0.134857,1.22373,-2.72303,0.134902,1.2237,-2.72301,-0.480483,1.68254,-2.72413,0.480485,1.68201,-2.72416
1760679849961289057,-0.134857,1.22373,-2.72303,0.134901,1.2237,-2.72301,-0.480483,1.68254,-2.72413,0.480486,1.68201,-2.72416
1760679849962418105,-0.134857,1.22373,-2.72303,0.134901,1.2237,-2.72301,-0.480483,1.68254,-2.72413,0.480486,1.68201,-2.72416
1760679849963528217,-0.134856,1.22373,-2.72303,0.134901,1.2237,-2.72301,-0.480483,1.68254,-2.72413,0.480486,1.68201,-2.72416
1760679849971097430,-0.134856,1.22373,-2.72303,0.134901,1.2237,-2.72301,-0.480483,1.68254,-2.72413,0.480486,1.68201,-2.72416
1760679849972137249,-0.134855,1.22373,-2.72303,0.134898,1.2237,-2.72301,-0.480485,1.68254,-2.72413,0.480488,1.68201,-2.72416
1760679849973237623,-0.134855,1.22373,-2.72303,0.134898,1.2237,-2.72301,-0.480485,1.68254,-2.72413,0.480488,1.68201,-2.72416
1760679849974325312,-0.134854,1.22373,-2.72303,0.134898,1.2237,-2.72301,-0.480486,1.68254,-2.72413,0.480488,1.682,-2.72416
1760679849975419925,-0.134854,1.22373,-2.72303,0.134897,1.2237,-2.72301,-0.480486,1.68253,-2.72413,0.480489,1.682,-2.72416
1760679849976522162,-0.134854,1.22373,-2.72303,0.134897,1.2237,-2.72301,-0.480486,1.68253,-2.72413,0.480489,1.682,-2.72416
1760679849977665387,-0.134853,1.22373,-2.72303,0.134897,1.2237,-2.72301,-0.480486,1.68253,-2.72413,0.480489,1.682,-2.72416
1760679849978753167,-0.134853,1.22373,-2.72303,0.134897,1.2237,-2.72301,-0.480486,1.68253,-2.72413,0.480489,1.682,-2.72416
1760679849979848671,-0.134853,1.22373,-2.72303,0.134896,1.2237,-2.72301,-0.480487,1.68253,-2.72413,0.48049,1.682,-2.72416
1760679849980947802,-0.134852,1.22373,-2.72303,0.134896,1.2237,-2.72301,-0.480487,1.68253,-2.72413,0.48049,1.682,-2.72416
1760679849982037726,-0.134852,1.22373,-2.72303,0.134896,1.2237,-2.72301,-0.480487,1.68253,-2.72413,0.48049,1.682,-2.72416
1760679849983147668,-0.134852,1.22373,-2.72303,0.134895,1.2237,-2.72301,-0.480488,1.68253,-2.72413,0.480491,1.682,-2.72416
1760679849984241058,-0.134852,1.22373,-2.72303,0.134895,1.2237,-2.72301,-0.480488,1.68253,-2.72413,0.480491,1.682,-2.72416
1760679849985332585,-0.134852,1.22373,-2.72303,0.134894,1.2237,-2.72301,-0.480488,1.68253,-2.72413,0.480491,1.682,-2.72416
1760679849986427950,-0.134852,1.22373,-2.72303,0.134894,1.2237,-2.72301,-0.480488,1.68253,-2.72413,0.480491,1.682,-2.72416
1760679849987518715,-0.134851,1.22373,-2.72303,0.134894,1.2237,-2.72301,-0.480489,1.68253,-2.72413,0.480492,1.682,-2.72416
1760679849988672299,-0.134851,1.22373,-2.72303,0.134894,1.2237,-2.72301,-0.480489,1.68253,-2.72413,0.480492,1.682,-2.72416
1760679849989702640,-0.134851,1.22373,-2.72303,0.134894,1.2237,-2.72301,-0.480489,1.68253,-2.72413,0.480492,1.682,-2.72416
1760679849990838221,-0.13485,1.22373,-2.72303,0.134893,1.2237,-2.72301,-0.480489,1.68252,-2.72413,0.480493,1.68199,-2.72416
1760679849991921332,-0.13485,1.22373,-2.72303,0.134893,1.2237,-2.72301,-0.480489,1.68252,-2.72413,0.480493,1.68199,-2.72416
1760679849993016696,-0.13485,1.22373,-2.72303,0.134892,1.2237,-2.72301,-0.48049,1.68252,-2.72413,0.480493,1.68199,-2.72416
1760679849994121858,-0.13485,1.22373,-2.72303,0.134892,1.2237,-2.72301,-0.48049,1.68252,-2.72413,0.480493,1.68199,-2.72416
1760679849995206542,-0.13485,1.22373,-2.72303,0.134892,1.2237,-2.72301,-0.48049,1.68252,-2.72413,0.480494,1.68199,-2.72416
1760679849996298891,-0.13485,1.22373,-2.72303,0.134892,1.2237,-2.72301,-0.48049,1.68252,-2.72413,0.480494,1.68199,-2.72416
1760679849997390568,-0.134849,1.22373,-2.72303,0.134891,1.2237,-2.72301,-0.480491,1.68252,-2.72413,0.480494,1.68199,-2.72416
1760679849998486744,-0.134849,1.22373,-2.72303,0.134891,1.2237,-2.72301,-0.480491,1.68252,-2.72413,0.480494,1.68199,-2.72416
1760679849999577279,-0.134849,1.22373,-2.72303,0.134891,1.2237,-2.72301,-0.480491,1.68252,-2.72413,0.480494,1.68199,-2.72416
1760679850000680828,-0.134849,1.22373,-2.72303,0.134891,1.2237,-2.72301,-0.480491,1.68252,-2.72413,0.480495,1.68199,-2.72416
1760679850001783276,-0.134848,1.22373,-2.72303,0.13489,1.2237,-2.72301,-0.480492,1.68252,-2.72413,0.480495,1.68199,-2.72416
1760679850002875173,-0.134848,1.22373,-2.72303,0.13489,1.2237,-2.72301,-0.480492,1.68252,-2.72413,0.480496,1.68199,-2.72416
1760679850003967742,-0.134848,1.22373,-2.72303,0.13489,1.2237,-2.72301,-0.480492,1.68252,-2.72413,0.480496,1.68199,-2.72416
1760679850005109264,-0.134848,1.22373,-2.72303,0.134889,1.2237,-2.72301,-0.480492,1.68252,-2.72413,0.480496,1.68199,-2.72416
1760679850006250836,-0.134848,1.22373,-2.72303,0.134889,1.2237,-2.72301,-0.480492,1.68252,-2.72413,0.480496,1.68199,-2.72416
1760679850007337884,-0.134847,1.22373,-2.72303,0.134888,1.2237,-2.72301,-0.480493,1.68252,-2.72413,0.480496,1.68198,-2.72416
1760679850008420945,-0.134847,1.22373,-2.72303,0.134888,1.2237,-2.72301,-0.480493,1.68252,-2.72413,0.480496,1.68198,-2.72416
1760679850009525847,-0.134847,1.22373,-2.72303,0.134888,1.2237,-2.72301,-0.480493,1.68252,-2.72413,0.480496,1.68198,-2.72416
1760679850010641890,-0.134847,1.22373,-2.72303,0.134888,1.2237,-2.72301,-0.480493,1.68251,-2.72413,0.480497,1.68198,-2.72416
1760679850011699222,-0.134846,1.22373,-2.72303,0.134887,1.2237,-2.72301,-0.480494,1.68251,-2.72413,0.480497,1.68198,-2.72416
1760679850012788335,-0.134846,1.22373,-2.72303,0.134887,1.2237,-2.72301,-0.480494,1.68251,-2.72413,0.480498,1.68198,-2.72416
1760679850013897545,-0.134846,1.22373,-2.72303,0.134887,1.2237,-2.72301,-0.480494,1.68251,-2.72413,0.480498,1.68198,-2.72416
1760679850014958855,-0.134846,1.22373,-2.72303,0.134886,1.2237,-2.72301,-0.480494,1.68251,-2.72413,0.480498,1.68198,-2.72416
1760679850016091049,-0.134846,1.22373,-2.72303,0.134886,1.2237,-2.72301,-0.480494,1.68251,-2.72413,0.480498,1.68198,-2.72416
1760679850017161105,-0.134845,1.22373,-2.72303,0.134886,1.2237,-2.72301,-0.480495,1.68251,-2.72413,0.480499,1.68198,-2.72416
1760679850018257812,-0.134845,1.22373,-2.72303,0.134886,1.2237,-2.72301,-0.480495,1.68251,-2.72413,0.480499,1.68198,-2.72416
1760679850019353747,-0.134845,1.22373,-2.72303,0.134886,1.2237,-2.72301,-0.480495,1.68251,-2.72413,0.480499,1.68198,-2.72416
1760679850020432810,-0.134845,1.22373,-2.72303,0.134885,1.2237,-2.72301,-0.480495,1.68251,-2.72413,0.480499,1.68198,-2.72416
1760679850021524287,-0.134844,1.22373,-2.72303,0.134885,1.2237,-2.72301,-0.480496,1.68251,-2.72413,0.4805,1.68198,-2.72416
1760679850022654818,-0.134844,1.22373,-2.72303,0.134885,1.2237,-2.72301,-0.480496,1.68251,-2.72413,0.4805,1.68198,-2.72416
1760679850023715276,-0.134844,1.22373,-2.72303,0.134884,1.22371,-2.72301,-0.480496,1.68251,-2.72413,0.4805,1.68197,-2.72416
1760679850024818926,-0.134844,1.22373,-2.72303,0.134884,1.22371,-2.72301,-0.480497,1.68251,-2.72413,0.480501,1.68197,-2.72416
1760679850025879454,-0.134844,1.22373,-2.72303,0.134884,1.22371,-2.72301,-0.480497,1.68251,-2.72413,0.480501,1.68197,-2.72416
1760679850026964669,-0.134843,1.22373,-2.72303,0.134883,1.22371,-2.72301,-0.480497,1.6825,-2.72413,0.480501,1.68197,-2.72416
1760679850040701661,-0.134841,1.22373,-2.72303,0.13488,1.22371,-2.72302,-0.4805,1.6825,-2.72413,0.480504,1.68196,-2.72416
1760679850041051142,-0.134841,1.22373,-2.72303,0.13488,1.22371,-2.72302,-0.4805,1.6825,-2.72413,0.480504,1.68196,-2.72416
1760679850043081377,-0.134841,1.22373,-2.72303,0.13488,1.22371,-2.72302,-0.4805,1.6825,-2.72413,0.480504,1.68196,-2.72416
1760679850044164337,-0.13484,1.22373,-2.72303,0.134879,1.22371,-2.72302,-0.4805,1.68249,-2.72413,0.480505,1.68196,-2.72416
1760679850045261495,-0.13484,1.22373,-2.72303,0.134879,1.22371,-2.72302,-0.4805,1.68249,-2.72413,0.480505,1.68196,-2.72416
1760679850047444980,-0.13484,1.22373,-2.72303,0.134879,1.22371,-2.72302,-0.480501,1.68249,-2.72413,0.480505,1.68196,-2.72416
1760679850049597395,-0.134839,1.22373,-2.72303,0.134878,1.22371,-2.72302,-0.480501,1.68249,-2.72413,0.480506,1.68196,-2.72416
1760679850050694984,-0.134839,1.22373,-2.72303,0.134878,1.22371,-2.72302,-0.480502,1.68249,-2.72413,0.480506,1.68196,-2.72416
1760679850051805647,-0.134839,1.22373,-2.72303,0.134877,1.22371,-2.72302,-0.480502,1.68249,-2.72413,0.480507,1.68196,-2.72416
1760679850052903997,-0.134838,1.22373,-2.72303,0.134877,1.22371,-2.72302,-0.480503,1.68249,-2.72413,0.480507,1.68196,-2.72416
1760679850053998770,-0.134838,1.22373,-2.72303,0.134877,1.22371,-2.72302,-0.480503,1.68249,-2.72413,0.480507,1.68196,-2.72416
1760679850055135592,-0.134838,1.22373,-2.72303,0.134876,1.22371,-2.72302,-0.480503,1.68249,-2.72413,0.480508,1.68196,-2.72416
1760679850059309295,-0.134838,1.22373,-2.72303,0.134876,1.22371,-2.72302,-0.480503,1.68249,-2.72413,0.480508,1.68196,-2.72416
1760679850060347612,-0.134838,1.22373,-2.72303,0.134876,1.22371,-2.72302,-0.480503,1.68249,-2.72413,0.480508,1.68196,-2.72416
1760679850061488833,-0.134837,1.22373,-2.72303,0.134875,1.22371,-2.72302,-0.480504,1.68248,-2.72413,0.480509,1.68195,-2.72416
1760679850062578195,-0.134837,1.22373,-2.72303,0.134875,1.22371,-2.72302,-0.480504,1.68248,-2.72413,0.480509,1.68195,-2.72416
1760679850063675263,-0.134837,1.22373,-2.72303,0.134874,1.22371,-2.72302,-0.480505,1.68248,-2.72413,0.48051,1.68195,-2.72416
1760679850064787218,-0.134837,1.22373,-2.72303,0.134874,1.22371,-2.72302,-0.480505,1.68248,-2.72413,0.48051,1.68195,-2.72416
1760679850065888143,-0.134836,1.22373,-2.72303,0.134874,1.22371,-2.72302,-0.480505,1.68248,-2.72413,0.48051,1.68195,-2.72416
1760679850066994969,-0.134836,1.22373,-2.72303,0.134873,1.22371,-2.72302,-0.480506,1.68248,-2.72413,0.48051,1.68195,-2.72416
1760679850068115210,-0.134836,1.22373,-2.72303,0.134873,1.22371,-2.72302,-0.480506,1.68248,-2.72413,0.48051,1.68195,-2.72416
1760679850069160018,-0.134836,1.22374,-2.72303,0.134873,1.22371,-2.72302,-0.480506,1.68248,-2.72413,0.480511,1.68195,-2.72416
1760679850070264780,-0.134836,1.22374,-2.72303,0.134873,1.22371,-2.72302,-0.480506,1.68248,-2.72413,0.480511,1.68195,-2.72416
1760679850071384370,-0.134835,1.22374,-2.72303,0.134872,1.22371,-2.72302,-0.480506,1.68248,-2.72413,0.480511,1.68195,-2.72416
1760679850072529118,-0.134835,1.22374,-2.72303,0.134872,1.22371,-2.72302,-0.480506,1.68248,-2.72413,0.480511,1.68195,-2.72416
1760679850073639360,-0.134835,1.22374,-2.72303,0.134872,1.22371,-2.72302,-0.480507,1.68248,-2.72413,0.480512,1.68194,-2.72416
1760679850074751717,-0.134835,1.22374,-2.72303,0.134872,1.22371,-2.72302,-0.480507,1.68248,-2.72413,0.480512,1.68194,-2.72416
1760679850075814048,-0.134835,1.22374,-2.72303,0.134871,1.22371,-2.72302,-0.480507,1.68248,-2.72413,0.480512,1.68194,-2.72415
1760679850076907950,-0.134835,1.22374,-2.72303,0.134871,1.22371,-2.72302,-0.480507,1.68248,-2.72413,0.480512,1.68194,-2.72415
1760679850077999797,-0.134834,1.22374,-2.72303,0.134871,1.22371,-2.72302,-0.480508,1.68247,-2.72413,0.480513,1.68194,-2.72415
1760679850079095522,-0.134834,1.22374,-2.72303,0.13487,1.22371,-2.72302,-0.480508,1.68247,-2.72412,0.480513,1.68194,-2.72415
1760679850080154718,-0.134834,1.22374,-2.72303,0.13487,1.22371,-2.72302,-0.480508,1.68247,-2.72412,0.480513,1.68194,-2.72415
1760679850081235985,-0.134833,1.22374,-2.72303,0.13487,1.22371,-2.72302,-0.480508,1.68247,-2.72412,0.480514,1.68194,-2.72415
1760679850082336259,-0.134833,1.22374,-2.72303,0.13487,1.22371,-2.72302,-0.480508,1.68247,-2.72412,0.480514,1.68194,-2.72415
1760679850083432354,-0.134833,1.22374,-2.72303,0.134869,1.22371,-2.72302,-0.480509,1.68247,-2.72412,0.480514,1.68194,-2.72415
1760679850084528911,-0.134833,1.22374,-2.72303,0.134869,1.22371,-2.72302,-0.480509,1.68247,-2.72412,0.480514,1.68194,-2.72415
1760679850085618914,-0.134833,1.22374,-2.72303,0.134869,1.22371,-2.72302,-0.480509,1.68247,-2.72412,0.480515,1.68194,-2.72415
1760679850086718206,-0.134833,1.22374,-2.72303,0.134869,1.22371,-2.72302,-0.480509,1.68247,-2.72412,0.480515,1.68194,-2.72415
1760679850087814252,-0.134832,1.22374,-2.72303,0.134868,1.22371,-2.72302,-0.48051,1.68247,-2.72412,0.480515,1.68194,-2.72415
1760679850088919364,-0.134832,1.22374,-2.72303,0.134868,1.22371,-2.72302,-0.48051,1.68247,-2.72412,0.480516,1.68193,-2.72415
1760679850090022042,-0.134832,1.22374,-2.72303,0.134868,1.22371,-2.72302,-0.48051,1.68247,-2.72412,0.480516,1.68193,-2.72415
1760679850091123197,-0.134832,1.22374,-2.72303,0.134867,1.22371,-2.72302,-0.480511,1.68247,-2.72412,0.480516,1.68193,-2.72415
1760679850092211638,-0.134832,1.22374,-2.72303,0.134867,1.22371,-2.72302,-0.480511,1.68247,-2.72412,0.480516,1.68193,-2.72415
1760679850093301793,-0.134831,1.22374,-2.72303,0.134867,1.22371,-2.72302,-0.480511,1.68247,-2.72412,0.480516,1.68193,-2.72415
1760679850094390093,-0.134831,1.22374,-2.72303,0.134867,1.22371,-2.72302,-0.480511,1.68247,-2.72412,0.480516,1.68193,-2.72415
1760679850095479386,-0.134831,1.22374,-2.72303,0.134867,1.22371,-2.72302,-0.480511,1.68246,-2.72412,0.480517,1.68193,-2.72415
1760679850096571153,-0.134831,1.22374,-2.72303,0.134867,1.22371,-2.72302,-0.480511,1.68246,-2.72412,0.480517,1.68193,-2.72415
1760679850097669002,-0.134831,1.22374,-2.72303,0.134867,1.22371,-2.72302,-0.480511,1.68246,-2.72412,0.480517,1.68193,-2.72415
1760679850098746913,-0.134831,1.22374,-2.72304,0.134866,1.22371,-2.72302,-0.480512,1.68246,-2.72412,0.480517,1.68193,-2.72415
1760679850107245957,-0.13483,1.22374,-2.72304,0.134864,1.22371,-2.72302,-0.480514,1.68246,-2.72412,0.480519,1.68192,-2.72415
1760679850108353274,-0.134829,1.22374,-2.72304,0.134864,1.22371,-2.72302,-0.480514,1.68246,-2.72412,0.48052,1.68192,-2.72415
1760679850109463626,-0.134829,1.22374,-2.72304,0.134863,1.22371,-2.72302,-0.480514,1.68246,-2.72412,0.48052,1.68192,-2.72415
1760679850110538291,-0.134829,1.22374,-2.72304,0.134863,1.22371,-2.72302,-0.480514,1.68246,-2.72412,0.48052,1.68192,-2.72415
1760679850111630309,-0.134829,1.22374,-2.72304,0.134863,1.22372,-2.72302,-0.480515,1.68245,-2.72412,0.480521,1.68192,-2.72415
1760679850112731093,-0.134829,1.22374,-2.72304,0.134863,1.22372,-2.72302,-0.480515,1.68245,-2.72412,0.480521,1.68192,-2.72415
1760679850113879528,-0.134828,1.22374,-2.72304,0.134863,1.22372,-2.72302,-0.480515,1.68245,-2.72412,0.480521,1.68192,-2.72415
1760679850116494490,-0.134828,1.22374,-2.72304,0.134863,1.22372,-2.72302,-0.480515,1.68245,-2.72412,0.480521,1.68192,-2.72415
1760679850117548726,-0.134828,1.22374,-2.72304,0.134862,1.22372,-2.72302,-0.480516,1.68245,-2.72412,0.480522,1.68192,-2.72415
1760679850118660461,-0.134828,1.22374,-2.72304,0.134862,1.22372,-2.72302,-0.480516,1.68245,-2.72412,0.480522,1.68192,-2.72415
1760679850119744023,-0.134828,1.22374,-2.72304,0.134862,1.22372,-2.72302,-0.480516,1.68245,-2.72412,0.480522,1.68192,-2.72415
1760679850121004269,-0.134827,1.22374,-2.72304,0.134861,1.22372,-2.72302,-0.480517,1.68245,-2.72412,0.480523,1.68192,-2.72415
1760679850122107879,-0.134827,1.22374,-2.72304,0.134861,1.22372,-2.72302,-0.480517,1.68245,-2.72412,0.480523,1.68192,-2.72415
1760679850123145003,-0.134827,1.22374,-2.72304,0.13486,1.22372,-2.72302,-0.480517,1.68245,-2.72412,0.480523,1.68191,-2.72415
1760679850124244825,-0.134827,1.22374,-2.72304,0.13486,1.22372,-2.72302,-0.480517,1.68245,-2.72412,0.480523,1.68191,-2.72415
1760679850125332355,-0.134826,1.22374,-2.72304,0.13486,1.22372,-2.72302,-0.480518,1.68245,-2.72412,0.480524,1.68191,-2.72415
1760679850126432678,-0.134826,1.22374,-2.72304,0.13486,1.22372,-2.72302,-0.480518,1.68245,-2.72412,0.480524,1.68191,-2.72415
1760679850127540766,-0.134826,1.22374,-2.72304,0.13486,1.22372,-2.72302,-0.480518,1.68245,-2.72412,0.480524,1.68191,-2.72415
1760679850128639607,-0.134826,1.22374,-2.72304,0.134859,1.22372,-2.72302,-0.480518,1.68245,-2.72412,0.480524,1.68191,-2.72415
1760679850129738939,-0.134826,1.22374,-2.72304,0.134859,1.22372,-2.72302,-0.480518,1.68245,-2.72412,0.480524,1.68191,-2.72415
1760679850130851235,-0.134825,1.22374,-2.72304,0.134859,1.22372,-2.72302,-0.480519,1.68244,-2.72412,0.480525,1.68191,-2.72415
1760679850131953202,-0.134825,1.22374,-2.72304,0.134859,1.22372,-2.72302,-0.480519,1.68244,-2.72412,0.480525,1.68191,-2.72415
1760679850133095214,-0.134825,1.22374,-2.72304,0.134858,1.22372,-2.72302,-0.480519,1.68244,-2.72412,0.480526,1.68191,-2.72415
1760679850134164329,-0.134825,1.22374,-2.72304,0.134858,1.22372,-2.72302,-0.480519,1.68244,-2.72412,0.480526,1.68191,-2.72415
1760679850135262188,-0.134825,1.22374,-2.72304,0.134858,1.22372,-2.72302,-0.48052,1.68244,-2.72412,0.480526,1.68191,-2.72415
1760679850136364355,-0.134825,1.22374,-2.72304,0.134858,1.22372,-2.72302,-0.48052,1.68244,-2.72412,0.480526,1.68191,-2.72415
1760679850138573177,-0.134825,1.22374,-2.72304,0.134858,1.22372,-2.72302,-0.48052,1.68244,-2.72412,0.480526,1.68191,-2.72415
1760679850139731210,-0.134824,1.22374,-2.72304,0.134857,1.22372,-2.72302,-0.480521,1.68244,-2.72412,0.480527,1.6819,-2.72415
1760679850139747691,-0.134824,1.22374,-2.72304,0.134857,1.22372,-2.72302,-0.480521,1.68244,-2.72412,0.480527,1.6819,-2.72415
1760679850140846802,-0.134824,1.22374,-2.72304,0.134857,1.22372,-2.72302,-0.480521,1.68244,-2.72412,0.480527,1.6819,-2.72415
1760679850141929823,-0.134824,1.22374,-2.72304,0.134857,1.22372,-2.72302,-0.480521,1.68244,-2.72412,0.480527,1.6819,-2.72415
1760679850143040506,-0.134824,1.22374,-2.72304,0.134856,1.22372,-2.72302,-0.480521,1.68244,-2.72412,0.480528,1.6819,-2.72415
1760679850144163232,-0.134824,1.22374,-2.72304,0.134856,1.22372,-2.72302,-0.480521,1.68244,-2.72412,0.480528,1.6819,-2.72415
1760679850145271511,-0.134823,1.22374,-2.72304,0.134856,1.22372,-2.72302,-0.480522,1.68244,-2.72412,0.480528,1.6819,-2.72415
1760679850146369380,-0.134823,1.22374,-2.72304,0.134856,1.22372,-2.72302,-0.480522,1.68244,-2.72412,0.480528,1.6819,-2.72415
1760679850147466748,-0.134823,1.22374,-2.72304,0.134856,1.22372,-2.72302,-0.480522,1.68244,-2.72412,0.480528,1.6819,-2.72415
1760679850148569456,-0.134823,1.22374,-2.72304,0.134855,1.22372,-2.72302,-0.480522,1.68243,-2.72412,0.480529,1.6819,-2.72415
1760679850149671212,-0.134823,1.22374,-2.72304,0.134855,1.22372,-2.72302,-0.480523,1.68243,-2.72412,0.480529,1.6819,-2.72415
1760679850150764753,-0.134823,1.22374,-2.72304,0.134855,1.22372,-2.72302,-0.480523,1.68243,-2.72412,0.480529,1.6819,-2.72415
1760679850151869354,-0.134822,1.22374,-2.72304,0.134854,1.22372,-2.72302,-0.480523,1.68243,-2.72412,0.48053,1.6819,-2.72415
1760679850152966632,-0.134822,1.22374,-2.72304,0.134854,1.22372,-2.72302,-0.480524,1.68243,-2.72412,0.48053,1.6819,-2.72415
1760679850154078458,-0.134822,1.22374,-2.72304,0.134854,1.22372,-2.72302,-0.480524,1.68243,-2.72412,0.48053,1.6819,-2.72415
1760679850155214088,-0.134822,1.22374,-2.72304,0.134854,1.22372,-2.72302,-0.480524,1.68243,-2.72412,0.480531,1.6819,-2.72415
1760679850156285827,-0.134822,1.22374,-2.72304,0.134854,1.22372,-2.72302,-0.480524,1.68243,-2.72412,0.480531,1.6819,-2.72415
1760679850157384628,-0.134822,1.22374,-2.72304,0.134854,1.22372,-2.72302,-0.480524,1.68243,-2.72412,0.480531,1.6819,-2.72415
1760679850158496543,-0.134822,1.22374,-2.72304,0.134853,1.22372,-2.72302,-0.480524,1.68243,-2.72412,0.480531,1.68189,-2.72415
1760679850159609010,-0.134821,1.22374,-2.72304,0.134853,1.22372,-2.72302,-0.480525,1.68243,-2.72412,0.480532,1.68189,-2.72415
1760679850160687352,-0.134821,1.22374,-2.72304,0.134853,1.22372,-2.72302,-0.480525,1.68243,-2.72412,0.480532,1.68189,-2.72415
1760679850161792555,-0.134821,1.22374,-2.72304,0.134852,1.22372,-2.72302,-0.480525,1.68243,-2.72412,0.480532,1.68189,-2.72415
1760679850162894140,-0.134821,1.22374,-2.72304,0.134852,1.22372,-2.72302,-0.480526,1.68242,-2.72412,0.480532,1.68189,-2.72415
1760679850164003371,-0.134821,1.22374,-2.72304,0.134852,1.22372,-2.72302,-0.480526,1.68242,-2.72412,0.480532,1.68189,-2.72415
1760679850165108143,-0.13482,1.22374,-2.72304,0.134852,1.22372,-2.72302,-0.480526,1.68242,-2.72412,0.480533,1.68189,-2.72415
1760679850166214618,-0.13482,1.22374,-2.72304,0.134852,1.22372,-2.72302,-0.480526,1.68242,-2.72412,0.480533,1.68189,-2.72415
1760679850167333146,-0.13482,1.22374,-2.72304,0.134852,1.22372,-2.72302,-0.480526,1.68242,-2.72412,0.480533,1.68189,-2.72415
1760679850168433931,-0.13482,1.22374,-2.72304,0.134851,1.22372,-2.72302,-0.480526,1.68242,-2.72412,0.480533,1.68189,-2.72415
1760679850177520557,-0.134819,1.22374,-2.72304,0.13485,1.22372,-2.72303,-0.480528,1.68242,-2.72412,0.480535,1.68188,-2.72415
1760679850178096337,-0.134819,1.22374,-2.72304,0.134849,1.22372,-2.72303,-0.480529,1.68242,-2.72412,0.480536,1.68188,-2.72415
1760679850179365841,-0.134818,1.22374,-2.72304,0.134849,1.22372,-2.72303,-0.480529,1.68242,-2.72412,0.480536,1.68188,-2.72415
1760679850180421480,-0.134818,1.22374,-2.72304,0.134849,1.22372,-2.72303,-0.480529,1.68242,-2.72412,0.480536,1.68188,-2.72415
1760679850181526452,-0.134818,1.22374,-2.72304,0.134849,1.22372,-2.72303,-0.480529,1.68242,-2.72412,0.480536,1.68188,-2.72415
1760679850182637927,-0.134818,1.22374,-2.72304,0.134848,1.22372,-2.72303,-0.480529,1.68241,-2.72412,0.480536,1.68188,-2.72415
1760679850183717220,-0.134818,1.22374,-2.72304,0.134848,1.22372,-2.72303,-0.48053,1.68241,-2.72412,0.480537,1.68188,-2.72415
1760679850184845978,-0.134818,1.22374,-2.72304,0.134848,1.22372,-2.72303,-0.48053,1.68241,-2.72412,0.480537,1.68188,-2.72415
1760679850185941783,-0.134818,1.22374,-2.72304,0.134848,1.22372,-2.72303,-0.48053,1.68241,-2.72412,0.480537,1.68188,-2.72415
1760679850187045663,-0.134817,1.22374,-2.72304,0.134847,1.22372,-2.72303,-0.480531,1.68241,-2.72412,0.480538,1.68188,-2.72415
1760679850188154673,-0.134817,1.22374,-2.72304,0.134847,1.22372,-2.72303,-0.480531,1.68241,-2.72412,0.480538,1.68188,-2.72415
1760679850189391275,-0.134817,1.22374,-2.72304,0.134847,1.22372,-2.72303,-0.480531,1.68241,-2.72412,0.480538,1.68188,-2.72415
1760679850190394515,-0.134817,1.22374,-2.72304,0.134847,1.22372,-2.72303,-0.480531,1.68241,-2.72412,0.480538,1.68187,-2.72415
1760679850191480831,-0.134817,1.22374,-2.72304,0.134847,1.22372,-2.72303,-0.480531,1.68241,-2.72412,0.480538,1.68187,-2.72415
1760679850192570896,-0.134817,1.22374,-2.72304,0.134847,1.22372,-2.72303,-0.480531,1.68241,-2.72412,0.480539,1.68187,-2.72415
1760679850193724811,-0.134817,1.22374,-2.72304,0.134846,1.22372,-2.72303,-0.480532,1.68241,-2.72412,0.480539,1.68187,-2.72415
1760679850193771289,-0.134817,1.22374,-2.72304,0.134846,1.22372,-2.72303,-0.480532,1.68241,-2.72412,0.480539,1.68187,-2.72415
1760679850194812490,-0.134816,1.22374,-2.72304,0.134846,1.22372,-2.72303,-0.480532,1.68241,-2.72412,0.48054,1.68187,-2.72415
1760679850195920639,-0.134816,1.22374,-2.72304,0.134846,1.22372,-2.72303,-0.480532,1.68241,-2.72412,0.48054,1.68187,-2.72415
1760679850197045879,-0.134816,1.22374,-2.72304,0.134845,1.22372,-2.72303,-0.480533,1.6824,-2.72412,0.48054,1.68187,-2.72415
1760679850198148657,-0.134816,1.22374,-2.72304,0.134845,1.22372,-2.72303,-0.480533,1.6824,-2.72412,0.48054,1.68187,-2.72415
1760679850199250644,-0.134816,1.22374,-2.72304,0.134845,1.22372,-2.72303,-0.480533,1.6824,-2.72412,0.48054,1.68187,-2.72415
1760679850200370885,-0.134816,1.22374,-2.72304,0.134845,1.22372,-2.72303,-0.480533,1.6824,-2.72412,0.480541,1.68187,-2.72415
1760679850201455559,-0.134815,1.22374,-2.72304,0.134845,1.22372,-2.72303,-0.480533,1.6824,-2.72412,0.480541,1.68187,-2.72415
1760679850202557075,-0.134815,1.22374,-2.72304,0.134845,1.22372,-2.72303,-0.480533,1.6824,-2.72412,0.480541,1.68187,-2.72415
1760679850203694729,-0.134815,1.22374,-2.72304,0.134844,1.22372,-2.72303,-0.480534,1.6824,-2.72412,0.480541,1.68187,-2.72415
1760679850204775626,-0.134815,1.22374,-2.72304,0.134844,1.22372,-2.72303,-0.480534,1.6824,-2.72412,0.480541,1.68187,-2.72415
1760679850205908201,-0.134815,1.22374,-2.72304,0.134844,1.22372,-2.72303,-0.480534,1.6824,-2.72412,0.480542,1.68187,-2.72414
1760679850206985761,-0.134815,1.22374,-2.72304,0.134844,1.22372,-2.72303,-0.480535,1.6824,-2.72412,0.480542,1.68186,-2.72414
1760679850208087798,-0.134815,1.22374,-2.72304,0.134844,1.22372,-2.72303,-0.480535,1.6824,-2.72412,0.480542,1.68186,-2.72414
1760679850209161501,-0.134815,1.22374,-2.72304,0.134844,1.22372,-2.72303,-0.480535,1.6824,-2.72412,0.480542,1.68186,-2.72414
1760679850210285770,-0.134814,1.22374,-2.72304,0.134843,1.22372,-2.72303,-0.480535,1.6824,-2.72412,0.480543,1.68186,-2.72414
1760679850211387687,-0.134814,1.22375,-2.72304,0.134843,1.22372,-2.72303,-0.480536,1.6824,-2.72412,0.480543,1.68186,-2.72414
1760679850212481408,-0.134814,1.22375,-2.72304,0.134843,1.22372,-2.72303,-0.480536,1.6824,-2.72412,0.480543,1.68186,-2.72414
1760679850213587953,-0.134814,1.22375,-2.72304,0.134843,1.22372,-2.72303,-0.480536,1.6824,-2.72412,0.480544,1.68186,-2.72414
1760679850214698025,-0.134814,1.22375,-2.72304,0.134843,1.22372,-2.72303,-0.480536,1.6824,-2.72412,0.480544,1.68186,-2.72414
1760679850215802336,-0.134814,1.22375,-2.72304,0.134842,1.22372,-2.72303,-0.480536,1.68239,-2.72412,0.480544,1.68186,-2.72414
1760679850216913270,-0.134814,1.22375,-2.72304,0.134842,1.22372,-2.72303,-0.480536,1.68239,-2.72412,0.480544,1.68186,-2.72414
1760679850218005949,-0.134813,1.22375,-2.72304,0.134842,1.22373,-2.72303,-0.480537,1.68239,-2.72412,0.480545,1.68186,-2.72414
1760679850219130919,-0.134813,1.22375,-2.72304,0.134842,1.22373,-2.72303,-0.480537,1.68239,-2.72412,0.480545,1.68186,-2.72414
1760679850220154747,-0.134813,1.22375,-2.72304,0.134841,1.22373,-2.72303,-0.480537,1.68239,-2.72412,0.480545,1.68186,-2.72414
1760679850221247547,-0.134813,1.22375,-2.72304,0.134841,1.22373,-2.72303,-0.480538,1.68239,-2.72412,0.480545,1.68186,-2.72414
1760679850222349383,-0.134813,1.22375,-2.72304,0.134841,1.22373,-2.72303,-0.480538,1.68239,-2.72412,0.480545,1.68186,-2.72414
1760679850223468603,-0.134812,1.22375,-2.72304,0.134841,1.22373,-2.72303,-0.480538,1.68239,-2.72412,0.480546,1.68185,-2.72414
1760679850224565159,-0.134812,1.22375,-2.72304,0.134841,1.22373,-2.72303,-0.480538,1.68239,-2.72412,0.480546,1.68185,-2.72414
1760679850225686823,-0.134812,1.22375,-2.72304,0.13484,1.22373,-2.72303,-0.480538,1.68239,-2.72412,0.480546,1.68185,-2.72414
1760679850230220377,-0.134812,1.22375,-2.72304,0.13484,1.22373,-2.72303,-0.480538,1.68239,-2.72412,0.480546,1.68185,-2.72414
1760679850233811618,-0.134811,1.22375,-2.72304,0.134839,1.22373,-2.72303,-0.48054,1.68238,-2.72411,0.480548,1.68185,-2.72414
1760679850233837978,-0.134811,1.22375,-2.72304,0.134839,1.22373,-2.72303,-0.48054,1.68238,-2.72411,0.480548,1.68185,-2.72414
1760679850234853230,-0.134811,1.22375,-2.72304,0.134839,1.22373,-2.72303,-0.48054,1.68238,-2.72411,0.480549,1.68185,-2.72414
1760679850235954355,-0.134811,1.22375,-2.72304,0.134839,1.22373,-2.72303,-0.48054,1.68238,-2.72411,0.480549,1.68185,-2.72414
1760679850237054158,-0.134811,1.22375,-2.72304,0.134838,1.22373,-2.72303,-0.480541,1.68238,-2.72411,0.480549,1.68185,-2.72414
1760679850238150003,-0.134811,1.22375,-2.72304,0.134838,1.22373,-2.72303,-0.480541,1.68238,-2.72411,0.480549,1.68185,-2.72414
1760679850239252530,-0.13481,1.22375,-2.72304,0.134838,1.22373,-2.72303,-0.480541,1.68238,-2.72411,0.48055,1.68184,-2.72414
1760679850241303123,-0.13481,1.22375,-2.72304,0.134838,1.22373,-2.72303,-0.480541,1.68238,-2.72411,0.48055,1.68184,-2.72414
1760679850242219859,-0.13481,1.22375,-2.72304,0.134838,1.22373,-2.72303,-0.480541,1.68238,-2.72411,0.48055,1.68184,-2.72414
1760679850243319111,-0.13481,1.22375,-2.72304,0.134837,1.22373,-2.72303,-0.480542,1.68238,-2.72411,0.48055,1.68184,-2.72414
1760679850244433381,-0.13481,1.22375,-2.72304,0.134837,1.22373,-2.72303,-0.480542,1.68238,-2.72411,0.48055,1.68184,-2.72414
1760679850245535107,-0.134809,1.22375,-2.72304,0.134837,1.22373,-2.72303,-0.480542,1.68238,-2.72411,0.480551,1.68184,-2.72414
1760679850246632405,-0.134809,1.22375,-2.72304,0.134837,1.22373,-2.72303,-0.480542,1.68238,-2.72411,0.480551,1.68184,-2.72414
1760679850247691420,-0.134809,1.22375,-2.72304,0.134837,1.22373,-2.72303,-0.480542,1.68238,-2.72411,0.480551,1.68184,-2.72414
1760679850248794649,-0.134809,1.22375,-2.72304,0.134836,1.22373,-2.72303,-0.480543,1.68237,-2.72411,0.480552,1.68184,-2.72414
1760679850249899912,-0.134809,1.22375,-2.72304,0.134836,1.22373,-2.72303,-0.480543,1.68237,-2.72411,0.480552,1.68184,-2.72414
1760679850251008030,-0.134809,1.22375,-2.72304,0.134836,1.22373,-2.72303,-0.480544,1.68237,-2.72411,0.480552,1.68184,-2.72414
1760679850252108705,-0.134809,1.22375,-2.72304,0.134836,1.22373,-2.72303,-0.480544,1.68237,-2.72411,0.480552,1.68184,-2.72414
1760679850253202616,-0.134808,1.22375,-2.72304,0.134836,1.22373,-2.72303,-0.480544,1.68237,-2.72411,0.480553,1.68184,-2.72414
1760679850254309632,-0.134808,1.22375,-2.72304,0.134836,1.22373,-2.72303,-0.480544,1.68237,-2.72411,0.480553,1.68184,-2.72414
1760679850255409114,-0.134808,1.22375,-2.72304,0.134835,1.22373,-2.72303,-0.480544,1.68237,-2.72411,0.480553,1.68184,-2.72414
1760679850256520108,-0.134808,1.22375,-2.72304,0.134835,1.22373,-2.72303,-0.480544,1.68237,-2.72411,0.480553,1.68184,-2.72414
1760679850257604271,-0.134808,1.22375,-2.72304,0.134835,1.22373,-2.72303,-0.480544,1.68237,-2.72411,0.480553,1.68184,-2.72414
1760679850258692361,-0.134808,1.22375,-2.72304,0.134835,1.22373,-2.72303,-0.480545,1.68237,-2.72411,0.480554,1.68183,-2.72414
1760679850259796372,-0.134808,1.22375,-2.72304,0.134835,1.22373,-2.72303,-0.480545,1.68237,-2.72411,0.480554,1.68183,-2.72414
1760679850260846190,-0.134807,1.22375,-2.72304,0.134834,1.22373,-2.72303,-0.480546,1.68237,-2.72411,0.480554,1.68183,-2.72414
1760679850261945632,-0.134807,1.22375,-2.72304,0.134834,1.22373,-2.72303,-0.480546,1.68237,-2.72411,0.480554,1.68183,-2.72414
1760679850263041256,-0.134807,1.22375,-2.72304,0.134834,1.22373,-2.72303,-0.480546,1.68237,-2.72411,0.480555,1.68183,-2.72414
1760679850264138544,-0.134807,1.22375,-2.72304,0.134834,1.22373,-2.72303,-0.480546,1.68237,-2.72411,0.480555,1.68183,-2.72414
1760679850265232004,-0.134807,1.22375,-2.72304,0.134834,1.22373,-2.72303,-0.480546,1.68237,-2.72411,0.480555,1.68183,-2.72414
1760679850266320916,-0.134807,1.22375,-2.72304,0.134834,1.22373,-2.72303,-0.480546,1.68237,-2.72411,0.480555,1.68183,-2.72414
1760679850267426670,-0.134807,1.22375,-2.72304,0.134833,1.22373,-2.72303,-0.480547,1.68236,-2.72411,0.480556,1.68183,-2.72414
1760679850268522094,-0.134807,1.22375,-2.72304,0.134833,1.22373,-2.72303,-0.480547,1.68236,-2.72411,0.480556,1.68183,-2.72414
1760679850269629802,-0.134807,1.22375,-2.72304,0.134833,1.22373,-2.72303,-0.480547,1.68236,-2.72411,0.480556,1.68183,-2.72414
1760679850270693125,-0.134806,1.22375,-2.72304,0.134833,1.22373,-2.72303,-0.480547,1.68236,-2.72411,0.480556,1.68183,-2.72414
1760679850271785594,-0.134806,1.22375,-2.72304,0.134833,1.22373,-2.72303,-0.480548,1.68236,-2.72411,0.480557,1.68183,-2.72414
1760679850272917628,-0.134806,1.22375,-2.72304,0.134832,1.22373,-2.72303,-0.480548,1.68236,-2.72411,0.480557,1.68182,-2.72414
1760679850274005929,-0.134806,1.22375,-2.72304,0.134832,1.22373,-2.72303,-0.480548,1.68236,-2.72411,0.480557,1.68182,-2.72414
1760679850275098527,-0.134805,1.22375,-2.72304,0.134832,1.22373,-2.72303,-0.480549,1.68236,-2.72411,0.480558,1.68182,-2.72414
1760679850276152022,-0.134805,1.22375,-2.72304,0.134832,1.22373,-2.72303,-0.480549,1.68236,-2.72411,0.480558,1.68182,-2.72414
1760679850277249631,-0.134805,1.22375,-2.72304,0.134832,1.22373,-2.72303,-0.480549,1.68236,-2.72411,0.480558,1.68182,-2.72414
1760679850278339204,-0.134805,1.22375,-2.72304,0.134832,1.22373,-2.72303,-0.480549,1.68236,-2.72411,0.480558,1.68182,-2.72414
1760679850279442353,-0.134805,1.22375,-2.72304,0.134832,1.22373,-2.72303,-0.480549,1.68236,-2.72411,0.480558,1.68182,-2.72414
1760679850280546313,-0.134805,1.22375,-2.72304,0.134832,1.22373,-2.72303,-0.480549,1.68236,-2.72411,0.480558,1.68182,-2.72414
1760679850281728712,-0.134805,1.22375,-2.72304,0.134831,1.22373,-2.72303,-0.48055,1.68236,-2.72411,0.480559,1.68182,-2.72414
1760679850282739125,-0.134805,1.22375,-2.72304,0.134831,1.22373,-2.72303,-0.48055,1.68236,-2.72411,0.480559,1.68182,-2.72414
1760679850283869045,-0.134804,1.22375,-2.72304,0.134831,1.22373,-2.72303,-0.48055,1.68235,-2.72411,0.480559,1.68182,-2.72414
1760679850289064102,-0.134804,1.22375,-2.72304,0.134831,1.22373,-2.72303,-0.48055,1.68235,-2.72411,0.48056,1.68182,-2.72414
1760679850289311030,-0.134804,1.22375,-2.72304,0.134831,1.22373,-2.72303,-0.48055,1.68235,-2.72411,0.48056,1.68182,-2.72414
1760679850290783117,-0.134804,1.22375,-2.72304,0.134831,1.22373,-2.72303,-0.48055,1.68235,-2.72411,0.48056,1.68182,-2.72414
1760679850291546713,-0.134804,1.22375,-2.72304,0.134831,1.22373,-2.72303,-0.48055,1.68235,-2.72411,0.48056,1.68182,-2.72414
1760679850292835133,-0.134804,1.22375,-2.72304,0.134831,1.22373,-2.72303,-0.48055,1.68235,-2.72411,0.48056,1.68182,-2.72414
1760679850293890822,-0.134804,1.22375,-2.72304,0.134831,1.22373,-2.72303,-0.48055,1.68235,-2.72411,0.48056,1.68182,-2.72414
1760679850294892008,-0.134804,1.22375,-2.72304,0.134831,1.22373,-2.72303,-0.48055,1.68235,-2.72411,0.48056,1.68182,-2.72414
1760679850296154458,-0.134803,1.22375,-2.72304,0.134829,1.22373,-2.72303,-0.480553,1.68235,-2.72411,0.480562,1.68181,-2.72414
1760679850297222551,-0.134803,1.22375,-2.72304,0.134829,1.22373,-2.72303,-0.480553,1.68235,-2.72411,0.480562,1.68181,-2.72414
1760679850298612232,-0.134803,1.22375,-2.72304,0.134829,1.22373,-2.72303,-0.480553,1.68235,-2.72411,0.480562,1.68181,-2.72414
1760679850299270619,-0.134803,1.22375,-2.72304,0.134829,1.22373,-2.72303,-0.480553,1.68235,-2.72411,0.480562,1.68181,-2.72414
1760679850300517510,-0.134802,1.22375,-2.72304,0.134829,1.22373,-2.72303,-0.480553,1.68235,-2.72411,0.480563,1.68181,-2.72414
1760679850302850568,-0.134802,1.22375,-2.72304,0.134828,1.22373,-2.72303,-0.480554,1.68234,-2.72411,0.480563,1.68181,-2.72414
1760679850303738910,-0.134802,1.22375,-2.72304,0.134828,1.22373,-2.72303,-0.480554,1.68234,-2.72411,0.480564,1.68181,-2.72414
1760679850305155392,-0.134801,1.22375,-2.72304,0.134828,1.22373,-2.72303,-0.480555,1.68234,-2.72411,0.480564,1.68181,-2.72414
1760679850305940950,-0.134801,1.22375,-2.72304,0.134828,1.22373,-2.72303,-0.480555,1.68234,-2.72411,0.480564,1.68181,-2.72414
1760679850307047986,-0.134801,1.22375,-2.72304,0.134828,1.22373,-2.72303,-0.480555,1.68234,-2.72411,0.480564,1.68181,-2.72414
1760679850308154381,-0.134801,1.22375,-2.72304,0.134827,1.22373,-2.72303,-0.480555,1.68234,-2.72411,0.480565,1.6818,-2.72414
1760679850309249264,-0.134801,1.22375,-2.72304,0.134827,1.22373,-2.72303,-0.480555,1.68234,-2.72411,0.480565,1.6818,-2.72414
1760679850310351531,-0.134801,1.22375,-2.72304,0.134827,1.22373,-2.72303,-0.480555,1.68234,-2.72411,0.480565,1.6818,-2.72414
1760679850311442818,-0.134801,1.22375,-2.72304,0.134827,1.22373,-2.72303,-0.480556,1.68234,-2.72411,0.480566,1.6818,-2.72414
1760679850314934580,-0.134801,1.22375,-2.72304,0.134827,1.22373,-2.72303,-0.480556,1.68234,-2.72411,0.480566,1.6818,-2.72414
1760679850316884392,-0.1348,1.22375,-2.72304,0.134826,1.22373,-2.72303,-0.480557,1.68234,-2.72411,0.480567,1.6818,-2.72414
1760679850317986659,-0.1348,1.22375,-2.72304,0.134826,1.22373,-2.72303,-0.480557,1.68234,-2.72411,0.480567,1.6818,-2.72414
1760679850319090249,-0.1348,1.22375,-2.72304,0.134826,1.22373,-2.72303,-0.480557,1.68233,-2.72411,0.480567,1.6818,-2.72414
1760679850320160686,-0.1348,1.22375,-2.72304,0.134826,1.22373,-2.72303,-0.480557,1.68233,-2.72411,0.480567,1.6818,-2.72414
1760679850321248666,-0.134799,1.22375,-2.72305,0.134825,1.22373,-2.72303,-0.480558,1.68233,-2.72411,0.480568,1.6818,-2.72414
1760679850322370180,-0.134799,1.22375,-2.72305,0.134825,1.22373,-2.72303,-0.480558,1.68233,-2.72411,0.480568,1.6818,-2.72414
1760679850323475172,-0.134799,1.22375,-2.72305,0.134825,1.22373,-2.72303,-0.480558,1.68233,-2.72411,0.480568,1.68179,-2.72414
1760679850324578772,-0.134799,1.22375,-2.72305,0.134825,1.22373,-2.72303,-0.480558,1.68233,-2.72411,0.480568,1.68179,-2.72414
1760679850325718520,-0.134799,1.22375,-2.72305,0.134825,1.22373,-2.72303,-0.480559,1.68233,-2.72411,0.480569,1.68179,-2.72414
1760679850325734340,-0.134799,1.22375,-2.72305,0.134825,1.22373,-2.72303,-0.480559,1.68233,-2.72411,0.480569,1.68179,-2.72414
1760679850326849542,-0.134799,1.22375,-2.72305,0.134825,1.22373,-2.72303,-0.480559,1.68233,-2.72411,0.480569,1.68179,-2.72414
1760679850327894771,-0.134798,1.22375,-2.72305,0.134825,1.22373,-2.72303,-0.480559,1.68233,-2.72411,0.480569,1.68179,-2.72414
1760679850328985516,-0.134798,1.22375,-2.72305,0.134824,1.22373,-2.72303,-0.480559,1.68233,-2.72411,0.48057,1.68179,-2.72414
1760679850330090048,-0.134798,1.22375,-2.72305,0.134824,1.22373,-2.72303,-0.480559,1.68233,-2.72411,0.48057,1.68179,-2.72414
1760679850331142400,-0.134798,1.22375,-2.72305,0.134824,1.22373,-2.72303,-0.48056,1.68233,-2.72411,0.48057,1.68179,-2.72414
1760679850332239738,-0.134798,1.22375,-2.72305,0.134824,1.22373,-2.72303,-0.48056,1.68233,-2.72411,0.48057,1.68179,-2.72414
1760679850333353477,-0.134798,1.22375,-2.72305,0.134824,1.22373,-2.72303,-0.48056,1.68233,-2.72411,0.48057,1.68179,-2.72414
1760679850334449743,-0.134798,1.22375,-2.72305,0.134824,1.22373,-2.72303,-0.48056,1.68233,-2.72411,0.48057,1.68179,-2.72414
1760679850335545558,-0.134797,1.22375,-2.72305,0.134824,1.22373,-2.72303,-0.480561,1.68232,-2.72411,0.480571,1.68179,-2.72414
1760679850336657804,-0.134797,1.22375,-2.72305,0.134824,1.22373,-2.72303,-0.480561,1.68232,-2.72411,0.480571,1.68179,-2.72414
1760679850337738500,-0.134797,1.22375,-2.72305,0.134824,1.22373,-2.72303,-0.480561,1.68232,-2.72411,0.480571,1.68179,-2.72414
1760679850338840607,-0.134797,1.22375,-2.72305,0.134823,1.22373,-2.72303,-0.480561,1.68232,-2.72411,0.480572,1.68179,-2.72414
1760679850339977500,-0.134797,1.22375,-2.72305,0.134823,1.22373,-2.72303,-0.480561,1.68232,-2.72411,0.480572,1.68179,-2.72414
1760679850341075008,-0.134797,1.22375,-2.72305,0.134823,1.22373,-2.72303,-0.480562,1.68232,-2.72411,0.480572,1.68178,-2.72413
1760679850342157328,-0.134797,1.22375,-2.72305,0.134823,1.22373,-2.72303,-0.480562,1.68232,-2.72411,0.480572,1.68178,-2.72413
1760679850343251169,-0.134796,1.22375,-2.72305,0.134822,1.22373,-2.72303,-0.480562,1.68232,-2.72411,0.480573,1.68178,-2.72413
1760679850344357935,-0.134796,1.22375,-2.72305,0.134822,1.22373,-2.72303,-0.480562,1.68232,-2.72411,0.480573,1.68178,-2.72413
1760679850345442639,-0.134796,1.22375,-2.72305,0.134822,1.22373,-2.72303,-0.480563,1.68232,-2.72411,0.480573,1.68178,-2.72413
1760679850346539706,-0.134796,1.22375,-2.72305,0.134822,1.22373,-2.72303,-0.480563,1.68232,-2.72411,0.480573,1.68178,-2.72413
1760679850347657252,-0.134796,1.22375,-2.72305,0.134822,1.22373,-2.72303,-0.480563,1.68232,-2.72411,0.480573,1.68178,-2.72413
1760679850348722840,-0.134796,1.22375,-2.72305,0.134822,1.22373,-2.72303,-0.480563,1.68232,-2.72411,0.480574,1.68178,-2.72413
1760679850349838583,-0.134796,1.22375,-2.72305,0.134822,1.22373,-2.72303,-0.480563,1.68232,-2.72411,0.480574,1.68178,-2.72413
1760679850350966348,-0.134795,1.22375,-2.72305,0.134821,1.22373,-2.72303,-0.480564,1.68232,-2.72411,0.480574,1.68178,-2.72413
1760679850352087712,-0.134795,1.22375,-2.72305,0.134821,1.22373,-2.72303,-0.480564,1.68232,-2.72411,0.480574,1.68178,-2.72413
1760679850353222450,-0.134795,1.22375,-2.72305,0.134821,1.22373,-2.72303,-0.480564,1.68231,-2.72411,0.480575,1.68178,-2.72413
1760679850354359463,-0.134795,1.22375,-2.72305,0.134821,1.22373,-2.72303,-0.480564,1.68231,-2.72411,0.480575,1.68178,-2.72413
1760679850355465047,-0.134795,1.22375,-2.72305,0.134821,1.22373,-2.72303,-0.480565,1.68231,-2.72411,0.480575,1.68178,-2.72413
1760679850364107482,-0.134794,1.22375,-2.72305,0.13482,1.22374,-2.72303,-0.480566,1.68231,-2.72411,0.480577,1.68177,-2.72413
1760679850364687761,-0.134794,1.22375,-2.72305,0.13482,1.22374,-2.72303,-0.480566,1.68231,-2.72411,0.480577,1.68177,-2.72413
1760679850365756344,-0.134793,1.22375,-2.72305,0.134819,1.22374,-2.72303,-0.480566,1.68231,-2.72411,0.480577,1.68177,-2.72413
1760679850366836379,-0.134793,1.22375,-2.72305,0.134819,1.22374,-2.72303,-0.480567,1.68231,-2.72411,0.480578,1.68177,-2.72413
1760679850367932074,-0.134793,1.22375,-2.72305,0.134819,1.22374,-2.72303,-0.480567,1.68231,-2.72411,0.480578,1.68177,-2.72413
1760679850369028420,-0.134793,1.22375,-2.72305,0.134819,1.22374,-2.72303,-0.480567,1.68231,-2.72411,0.480578,1.68177,-2.72413
1760679850370137039,-0.134793,1.22375,-2.72305,0.134819,1.22374,-2.72304,-0.480567,1.6823,-2.72411,0.480578,1.68177,-2.72413
1760679850373696680,-0.134793,1.22376,-2.72305,0.134819,1.22374,-2.72304,-0.480568,1.6823,-2.72411,0.480579,1.68177,-2.72413
1760679850374736619,-0.134792,1.22376,-2.72305,0.134818,1.22374,-2.72304,-0.480568,1.6823,-2.72411,0.480579,1.68177,-2.72413
1760679850375829829,-0.134792,1.22376,-2.72305,0.134818,1.22374,-2.72304,-0.480568,1.6823,-2.72411,0.48058,1.68176,-2.72413
1760679850376925163,-0.134792,1.22376,-2.72305,0.134818,1.22374,-2.72304,-0.480569,1.6823,-2.72411,0.48058,1.68176,-2.72413
1760679850378068809,-0.134792,1.22376,-2.72305,0.134818,1.22374,-2.72304,-0.480569,1.6823,-2.72411,0.48058,1.68176,-2.72413
1760679850379154675,-0.134792,1.22376,-2.72305,0.134818,1.22374,-2.72304,-0.480569,1.6823,-2.72411,0.480581,1.68176,-2.72413
1760679850380227056,-0.134792,1.22376,-2.72305,0.134818,1.22374,-2.72304,-0.480569,1.6823,-2.72411,0.480581,1.68176,-2.72413
1760679850381332980,-0.134791,1.22376,-2.72305,0.134817,1.22374,-2.72304,-0.48057,1.6823,-2.7241,0.480581,1.68176,-2.72413
1760679850382435087,-0.134791,1.22376,-2.72305,0.134817,1.22374,-2.72304,-0.48057,1.6823,-2.7241,0.480581,1.68176,-2.72413
1760679850383540299,-0.134791,1.22376,-2.72305,0.134817,1.22374,-2.72304,-0.48057,1.6823,-2.7241,0.480581,1.68176,-2.72413
1760679850384659519,-0.134791,1.22376,-2.72305,0.134817,1.22374,-2.72304,-0.48057,1.6823,-2.7241,0.480581,1.68176,-2.72413
1760679850385753951,-0.134791,1.22376,-2.72305,0.134817,1.22374,-2.72304,-0.48057,1.6823,-2.7241,0.480581,1.68176,-2.72413
1760679850386861609,-0.134791,1.22376,-2.72305,0.134817,1.22374,-2.72304,-0.480571,1.68229,-2.7241,0.480582,1.68176,-2.72413
1760679850387957163,-0.134791,1.22376,-2.72305,0.134817,1.22374,-2.72304,-0.480571,1.68229,-2.7241,0.480582,1.68176,-2.72413
1760679850389146926,-0.13479,1.22376,-2.72305,0.134816,1.22374,-2.72304,-0.480571,1.68229,-2.7241,0.480583,1.68176,-2.72413
1760679850390172678,-0.13479,1.22376,-2.72305,0.134816,1.22374,-2.72304,-0.480571,1.68229,-2.7241,0.480583,1.68176,-2.72413
1760679850391276539,-0.13479,1.22376,-2.72305,0.134816,1.22374,-2.72304,-0.480572,1.68229,-2.7241,0.480583,1.68175,-2.72413
1760679850392357275,-0.13479,1.22376,-2.72305,0.134816,1.22374,-2.72304,-0.480572,1.68229,-2.7241,0.480583,1.68175,-2.72413
1760679850393454743,-0.13479,1.22376,-2.72305,0.134816,1.22374,-2.72304,-0.480572,1.68229,-2.7241,0.480584,1.68175,-2.72413
1760679850394549767,-0.13479,1.22376,-2.72305,0.134816,1.22374,-2.72304,-0.480572,1.68229,-2.7241,0.480584,1.68175,-2.72413
1760679850395667433,-0.13479,1.22376,-2.72305,0.134816,1.22374,-2.72304,-0.480572,1.68229,-2.7241,0.480584,1.68175,-2.72413
1760679850396747458,-0.13479,1.22376,-2.72305,0.134815,1.22374,-2.72304,-0.480572,1.68229,-2.7241,0.480584,1.68175,-2.72413
1760679850397825009,-0.134789,1.22376,-2.72305,0.134815,1.22374,-2.72304,-0.480573,1.68229,-2.7241,0.480584,1.68175,-2.72413
1760679850398926845,-0.134789,1.22376,-2.72305,0.134815,1.22374,-2.72304,-0.480573,1.68229,-2.7241,0.480585,1.68175,-2.72413
1760679850400034452,-0.134789,1.22376,-2.72305,0.134815,1.22374,-2.72304,-0.480573,1.68229,-2.7241,0.480585,1.68175,-2.72413
1760679850401143102,-0.134789,1.22376,-2.72305,0.134815,1.22374,-2.72304,-0.480574,1.68229,-2.7241,0.480585,1.68175,-2.72413
1760679850402243886,-0.134789,1.22376,-2.72305,0.134815,1.22374,-2.72304,-0.480574,1.68229,-2.7241,0.480585,1.68175,-2.72413
1760679850403336385,-0.134788,1.22376,-2.72305,0.134814,1.22374,-2.72304,-0.480574,1.68229,-2.7241,0.480586,1.68175,-2.72413
1760679850404438452,-0.134788,1.22376,-2.72305,0.134814,1.22374,-2.72304,-0.480574,1.68229,-2.7241,0.480586,1.68175,-2.72413
1760679850405543845,-0.134788,1.22376,-2.72305,0.134814,1.22374,-2.72304,-0.480574,1.68228,-2.7241,0.480586,1.68175,-2.72413
1760679850406647034,-0.134788,1.22376,-2.72305,0.134814,1.22374,-2.72304,-0.480574,1.68228,-2.7241,0.480586,1.68175,-2.72413
1760679850407748089,-0.134788,1.22376,-2.72305,0.134814,1.22374,-2.72304,-0.480574,1.68228,-2.7241,0.480586,1.68175,-2.72413
1760679850408838884,-0.134788,1.22376,-2.72305,0.134814,1.22374,-2.72304,-0.480575,1.68228,-2.7241,0.480587,1.68174,-2.72413
1760679850409931182,-0.134788,1.22376,-2.72305,0.134814,1.22374,-2.72304,-0.480575,1.68228,-2.7241,0.480587,1.68174,-2.72413
1760679850411077363,-0.134787,1.22376,-2.72305,0.134813,1.22374,-2.72304,-0.480576,1.68228,-2.7241,0.480588,1.68174,-2.72413
1760679850412136017,-0.134787,1.22376,-2.72305,0.134813,1.22374,-2.72304,-0.480576,1.68228,-2.7241,0.480588,1.68174,-2.72413
1760679850413228486,-0.134787,1.22376,-2.72305,0.134813,1.22374,-2.72304,-0.480576,1.68228,-2.7241,0.480588,1.68174,-2.72413
1760679850414325774,-0.134787,1.22376,-2.72305,0.134813,1.22374,-2.72304,-0.480576,1.68228,-2.7241,0.480588,1.68174,-2.72413
1760679850415420016,-0.134787,1.22376,-2.72305,0.134813,1.22374,-2.72304,-0.480576,1.68228,-2.7241,0.480588,1.68174,-2.72413
1760679850416547882,-0.134787,1.22376,-2.72305,0.134813,1.22374,-2.72304,-0.480576,1.68228,-2.7241,0.480588,1.68174,-2.72413
1760679850417653074,-0.134787,1.22376,-2.72305,0.134813,1.22374,-2.72304,-0.480576,1.68228,-2.7241,0.480588,1.68174,-2.72413
1760679850418748058,-0.134787,1.22376,-2.72305,0.134813,1.22374,-2.72304,-0.480577,1.68228,-2.7241,0.480589,1.68174,-2.72413
1760679850419852138,-0.134786,1.22376,-2.72305,0.134812,1.22374,-2.72304,-0.480577,1.68228,-2.7241,0.480589,1.68174,-2.72413
1760679850424281105,-0.134786,1.22376,-2.72305,0.134812,1.22374,-2.72304,-0.480578,1.68227,-2.7241,0.48059,1.68174,-2.72413
1760679850424294861,-0.134786,1.22376,-2.72305,0.134812,1.22374,-2.72304,-0.480578,1.68227,-2.7241,0.48059,1.68174,-2.72413
1760679850425404883,-0.134786,1.22376,-2.72305,0.134811,1.22374,-2.72304,-0.480578,1.68227,-2.7241,0.480591,1.68173,-2.72413
1760679850426509324,-0.134786,1.22376,-2.72305,0.134811,1.22374,-2.72304,-0.480578,1.68227,-2.7241,0.480591,1.68173,-2.72413
1760679850427645295,-0.134785,1.22376,-2.72305,0.134811,1.22374,-2.72304,-0.480579,1.68227,-2.7241,0.480591,1.68173,-2.72413
1760679850428796926,-0.134785,1.22376,-2.72305,0.134811,1.22374,-2.72304,-0.480579,1.68227,-2.7241,0.480591,1.68173,-2.72413
1760679850429825684,-0.134785,1.22376,-2.72305,0.134811,1.22374,-2.72304,-0.480579,1.68227,-2.7241,0.480591,1.68173,-2.72413
1760679850430922611,-0.134785,1.22376,-2.72305,0.134811,1.22374,-2.72304,-0.48058,1.68227,-2.7241,0.480592,1.68173,-2.72413
1760679850432034998,-0.134785,1.22376,-2.72305,0.134811,1.22374,-2.72304,-0.48058,1.68227,-2.7241,0.480592,1.68173,-2.72413
1760679850433153786,-0.134785,1.22376,-2.72305,0.13481,1.22374,-2.72304,-0.48058,1.68227,-2.7241,0.480592,1.68173,-2.72413
1760679850434255462,-0.134785,1.22376,-2.72305,0.13481,1.22374,-2.72304,-0.48058,1.68227,-2.7241,0.480592,1.68173,-2.72413
1760679850435346648,-0.134785,1.22376,-2.72305,0.13481,1.22374,-2.72304,-0.48058,1.68227,-2.7241,0.480592,1.68173,-2.72413
1760679850436438145,-0.134784,1.22376,-2.72305,0.13481,1.22374,-2.72304,-0.48058,1.68227,-2.7241,0.480593,1.68173,-2.72413
1760679850437538679,-0.134784,1.22376,-2.72305,0.13481,1.22374,-2.72304,-0.480581,1.68227,-2.7241,0.480593,1.68173,-2.72413
1760679850438650034,-0.134784,1.22376,-2.72305,0.13481,1.22374,-2.72304,-0.480581,1.68227,-2.7241,0.480593,1.68173,-2.72413
1760679850439752090,-0.134784,1.22376,-2.72305,0.13481,1.22374,-2.72304,-0.480581,1.68226,-2.7241,0.480594,1.68173,-2.72413
1760679850440847996,-0.134784,1.22376,-2.72305,0.134809,1.22374,-2.72304,-0.480582,1.68226,-2.7241,0.480594,1.68172,-2.72413
1760679850441932549,-0.134784,1.22376,-2.72305,0.134809,1.22374,-2.72304,-0.480582,1.68226,-2.7241,0.480594,1.68172,-2.72413
1760679850443025248,-0.134783,1.22376,-2.72305,0.134809,1.22374,-2.72304,-0.480582,1.68226,-2.7241,0.480594,1.68172,-2.72413
1760679850444148375,-0.134783,1.22376,-2.72305,0.134809,1.22374,-2.72304,-0.480582,1.68226,-2.7241,0.480594,1.68172,-2.72413
1760679850445249630,-0.134783,1.22376,-2.72305,0.134809,1.22374,-2.72304,-0.480582,1.68226,-2.7241,0.480594,1.68172,-2.72413
1760679850446353420,-0.134783,1.22376,-2.72305,0.134809,1.22374,-2.72304,-0.480582,1.68226,-2.7241,0.480595,1.68172,-2.72413
1760679850447454185,-0.134783,1.22376,-2.72305,0.134809,1.22374,-2.72304,-0.480582,1.68226,-2.7241,0.480595,1.68172,-2.72413
1760679850448557945,-0.134783,1.22376,-2.72305,0.134809,1.22374,-2.72304,-0.480583,1.68226,-2.7241,0.480595,1.68172,-2.72413
1760679850449659210,-0.134782,1.22376,-2.72305,0.134808,1.22374,-2.72304,-0.480583,1.68226,-2.7241,0.480596,1.68172,-2.72413
1760679850450758762,-0.134782,1.22376,-2.72305,0.134808,1.22374,-2.72304,-0.480583,1.68226,-2.7241,0.480596,1.68172,-2.72413
1760679850451875236,-0.134782,1.22376,-2.72305,0.134808,1.22374,-2.72304,-0.480584,1.68226,-2.7241,0.480596,1.68172,-2.72413
1760679850452970881,-0.134782,1.22376,-2.72305,0.134808,1.22374,-2.72304,-0.480584,1.68226,-2.7241,0.480597,1.68172,-2.72413
1760679850454093868,-0.134782,1.22376,-2.72305,0.134808,1.22374,-2.72304,-0.480584,1.68226,-2.7241,0.480597,1.68172,-2.72413
1760679850455166519,-0.134782,1.22376,-2.72305,0.134808,1.22374,-2.72304,-0.480584,1.68226,-2.7241,0.480597,1.68172,-2.72413
1760679850456363145,-0.134782,1.22376,-2.72305,0.134808,1.22374,-2.72304,-0.480584,1.68226,-2.7241,0.480597,1.68172,-2.72413
1760679850457431568,-0.134782,1.22376,-2.72305,0.134808,1.22374,-2.72304,-0.480584,1.68226,-2.7241,0.480597,1.68172,-2.72413
1760679850458492497,-0.134781,1.22376,-2.72305,0.134807,1.22374,-2.72304,-0.480585,1.68225,-2.7241,0.480597,1.68172,-2.72413
1760679850459583573,-0.134781,1.22376,-2.72305,0.134807,1.22374,-2.72304,-0.480585,1.68225,-2.7241,0.480598,1.68171,-2.72413
1760679850460695939,-0.134781,1.22376,-2.72305,0.134807,1.22374,-2.72304,-0.480585,1.68225,-2.7241,0.480598,1.68171,-2.72413
1760679850461836649,-0.134781,1.22376,-2.72305,0.134807,1.22374,-2.72304,-0.480585,1.68225,-2.7241,0.480598,1.68171,-2.72413
1760679850462933536,-0.134781,1.22376,-2.72305,0.134806,1.22374,-2.72304,-0.480586,1.68225,-2.7241,0.480599,1.68171,-2.72413
1760679850464022418,-0.134781,1.22376,-2.72305,0.134806,1.22374,-2.72304,-0.480586,1.68225,-2.7241,0.480599,1.68171,-2.72413
1760679850465126258,-0.13478,1.22376,-2.72305,0.134806,1.22374,-2.72304,-0.480586,1.68225,-2.7241,0.480599,1.68171,-2.72413
1760679850466213898,-0.13478,1.22376,-2.72305,0.134806,1.22374,-2.72304,-0.480586,1.68225,-2.7241,0.480599,1.68171,-2.72413
1760679850467330612,-0.13478,1.22376,-2.72305,0.134806,1.22374,-2.72304,-0.480586,1.68225,-2.7241,0.480599,1.68171,-2.72413
1760679850468424774,-0.13478,1.22376,-2.72305,0.134806,1.22374,-2.72304,-0.480587,1.68225,-2.7241,0.4806,1.68171,-2.72413
1760679850469524346,-0.13478,1.22376,-2.72305,0.134806,1.22374,-2.72304,-0.480587,1.68225,-2.7241,0.4806,1.68171,-2.72413
1760679850470619590,-0.13478,1.22376,-2.72305,0.134806,1.22374,-2.72304,-0.480587,1.68225,-2.7241,0.4806,1.68171,-2.72413
1760679850471723641,-0.13478,1.22376,-2.72305,0.134805,1.22374,-2.72304,-0.480587,1.68225,-2.7241,0.4806,1.68171,-2.72413
1760679850472839954,-0.134779,1.22376,-2.72305,0.134805,1.22374,-2.72304,-0.480588,1.68224,-2.7241,0.480601,1.68171,-2.72413
1760679850480466947,-0.134779,1.22376,-2.72305,0.134804,1.22374,-2.72304,-0.480589,1.68224,-2.7241,0.480602,1.6817,-2.72413
1760679850480889988,-0.134779,1.22376,-2.72305,0.134804,1.22374,-2.72304,-0.480589,1.68224,-2.7241,0.480602,1.6817,-2.72413
1760679850481991494,-0.134778,1.22376,-2.72305,0.134804,1.22374,-2.72304,-0.480589,1.68224,-2.7241,0.480603,1.6817,-2.72413
1760679850483116824,-0.134778,1.22376,-2.72305,0.134804,1.22374,-2.72304,-0.48059,1.68224,-2.7241,0.480603,1.6817,-2.72412
1760679850484219032,-0.134778,1.22376,-2.72305,0.134804,1.22374,-2.72304,-0.48059,1.68224,-2.7241,0.480603,1.6817,-2.72412
1760679850485317231,-0.134778,1.22376,-2.72305,0.134804,1.22374,-2.72304,-0.48059,1.68224,-2.7241,0.480603,1.6817,-2.72412
1760679850486450978,-0.134778,1.22376,-2.72305,0.134804,1.22374,-2.72304,-0.48059,1.68224,-2.7241,0.480603,1.6817,-2.72412
1760679850487525332,-0.134778,1.22376,-2.72305,0.134803,1.22374,-2.72304,-0.480591,1.68224,-2.7241,0.480604,1.6817,-2.72412
1760679850488632308,-0.134778,1.22376,-2.72305,0.134803,1.22374,-2.72304,-0.480591,1.68224,-2.7241,0.480604,1.6817,-2.72412
1760679850489748893,-0.134777,1.22376,-2.72305,0.134803,1.22374,-2.72304,-0.480591,1.68224,-2.7241,0.480604,1.6817,-2.72412
1760679850490869625,-0.134777,1.22376,-2.72305,0.134803,1.22374,-2.72304,-0.480591,1.68224,-2.7241,0.480604,1.6817,-2.72412
1760679850491961122,-0.134777,1.22376,-2.72305,0.134803,1.22374,-2.72304,-0.480591,1.68223,-2.7241,0.480605,1.6817,-2.72412
1760679850493055584,-0.134777,1.22376,-2.72305,0.134803,1.22374,-2.72304,-0.480592,1.68223,-2.7241,0.480605,1.68169,-2.72412
1760679850494149386,-0.134777,1.22376,-2.72305,0.134803,1.22374,-2.72304,-0.480592,1.68223,-2.7241,0.480605,1.68169,-2.72412
1760679850495260059,-0.134777,1.22376,-2.72305,0.134802,1.22374,-2.72304,-0.480592,1.68223,-2.7241,0.480606,1.68169,-2.72412
1760679850496363017,-0.134777,1.22376,-2.72305,0.134802,1.22374,-2.72304,-0.480592,1.68223,-2.7241,0.480606,1.68169,-2.72412
1760679850497460946,-0.134776,1.22376,-2.72305,0.134802,1.22374,-2.72304,-0.480593,1.68223,-2.7241,0.480606,1.68169,-2.72412
1760679850498564927,-0.134776,1.22376,-2.72305,0.134802,1.22374,-2.72304,-0.480593,1.68223,-2.7241,0.480606,1.68169,-2.72412
1760679850499677854,-0.134776,1.22376,-2.72305,0.134802,1.22374,-2.72304,-0.480593,1.68223,-2.7241,0.480606,1.68169,-2.72412
1760679850500768860,-0.134776,1.22376,-2.72305,0.134802,1.22374,-2.72304,-0.480593,1.68223,-2.7241,0.480606,1.68169,-2.72412
1760679850501869223,-0.134776,1.22376,-2.72305,0.134802,1.22374,-2.72304,-0.480593,1.68223,-2.7241,0.480607,1.68169,-2.72412
1760679850502971791,-0.134776,1.22376,-2.72305,0.134802,1.22374,-2.72304,-0.480593,1.68223,-2.7241,0.480607,1.68169,-2.72412
1760679850504084548,-0.134776,1.22376,-2.72305,0.134801,1.22374,-2.72304,-0.480594,1.68223,-2.7241,0.480607,1.68169,-2.72412
1760679850505147892,-0.134775,1.22376,-2.72305,0.134801,1.22374,-2.72304,-0.480594,1.68223,-2.7241,0.480608,1.68169,-2.72412
1760679850506271760,-0.134775,1.22376,-2.72305,0.134801,1.22374,-2.72304,-0.480594,1.68223,-2.7241,0.480608,1.68169,-2.72412
1760679850507367375,-0.134775,1.22376,-2.72305,0.134801,1.22374,-2.72304,-0.480594,1.68222,-2.7241,0.480608,1.68169,-2.72412
1760679850508458050,-0.134775,1.22376,-2.72305,0.134801,1.22374,-2.72304,-0.480594,1.68222,-2.7241,0.480608,1.68169,-2.72412
1760679850509561299,-0.134775,1.22376,-2.72305,0.1348,1.22374,-2.72304,-0.480595,1.68222,-2.7241,0.480608,1.68168,-2.72412
1760679850510676631,-0.134775,1.22376,-2.72305,0.1348,1.22374,-2.72304,-0.480595,1.68222,-2.7241,0.480608,1.68168,-2.72412
1760679850510717308,-0.134775,1.22376,-2.72305,0.1348,1.22374,-2.72304,-0.480595,1.68222,-2.7241,0.480609,1.68168,-2.72412
1760679850511804146,-0.134775,1.22376,-2.72305,0.1348,1.22374,-2.72304,-0.480595,1.68222,-2.7241,0.480609,1.68168,-2.72412
1760679850512906704,-0.134775,1.22376,-2.72305,0.1348,1.22374,-2.72304,-0.480595,1.68222,-2.7241,0.480609,1.68168,-2.72412
1760679850514009682,-0.134774,1.22376,-2.72305,0.1348,1.22374,-2.72304,-0.480596,1.68222,-2.7241,0.480609,1.68168,-2.72412
1760679850515112811,-0.134774,1.22376,-2.72305,0.1348,1.22374,-2.72304,-0.480596,1.68222,-2.7241,0.48061,1.68168,-2.72412
1760679850516211171,-0.134774,1.22376,-2.72305,0.1348,1.22374,-2.72304,-0.480596,1.68222,-2.7241,0.48061,1.68168,-2.72412
1760679850517313669,-0.134774,1.22376,-2.72305,0.134799,1.22375,-2.72304,-0.480596,1.68222,-2.7241,0.48061,1.68168,-2.72412
1760679850518410686,-0.134774,1.22376,-2.72305,0.134799,1.22375,-2.72304,-0.480596,1.68222,-2.7241,0.48061,1.68168,-2.72412
1760679850519504758,-0.134773,1.22376,-2.72305,0.134799,1.22375,-2.72304,-0.480597,1.68222,-2.7241,0.480611,1.68168,-2.72412
1760679850520605071,-0.134773,1.22376,-2.72305,0.134799,1.22375,-2.72304,-0.480597,1.68222,-2.7241,0.480611,1.68168,-2.72412
1760679850521721926,-0.134773,1.22376,-2.72305,0.134799,1.22375,-2.72304,-0.480597,1.68222,-2.7241,0.480611,1.68168,-2.72412
1760679850522831737,-0.134773,1.22376,-2.72305,0.134799,1.22375,-2.72304,-0.480597,1.68222,-2.7241,0.480611,1.68168,-2.72412
1760679850523926691,-0.134773,1.22376,-2.72305,0.134799,1.22375,-2.72304,-0.480598,1.68222,-2.7241,0.480611,1.68168,-2.72412
1760679850525044948,-0.134773,1.22376,-2.72305,0.134799,1.22375,-2.72304,-0.480598,1.68222,-2.7241,0.480611,1.68168,-2.72412
1760679850526144861,-0.134773,1.22376,-2.72305,0.134798,1.22375,-2.72304,-0.480598,1.68221,-2.7241,0.480612,1.68168,-2.72412
1760679850527244934,-0.134772,1.22376,-2.72305,0.134798,1.22375,-2.72304,-0.480598,1.68221,-2.7241,0.480612,1.68167,-2.72412
1760679850528343524,-0.134772,1.22376,-2.72305,0.134798,1.22375,-2.72304,-0.480598,1.68221,-2.7241,0.480612,1.68167,-2.72412
1760679850529435522,-0.134772,1.22376,-2.72305,0.134798,1.22375,-2.72304,-0.480599,1.68221,-2.7241,0.480613,1.68167,-2.72412
1760679850530877533,-0.134772,1.22376,-2.72305,0.134798,1.22375,-2.72304,-0.480599,1.68221,-2.7241,0.480613,1.68167,-2.72412
1760679850534820088,-0.134772,1.22376,-2.72305,0.134798,1.22375,-2.72304,-0.480599,1.68221,-2.7241,0.480613,1.68167,-2.72412
1760679850535790977,-0.134771,1.22377,-2.72305,0.134797,1.22375,-2.72304,-0.4806,1.68221,-2.7241,0.480614,1.68167,-2.72412
1760679850536898764,-0.134771,1.22377,-2.72305,0.134797,1.22375,-2.72304,-0.4806,1.68221,-2.7241,0.480614,1.68167,-2.72412
1760679850537997775,-0.134771,1.22377,-2.72305,0.134797,1.22375,-2.72304,-0.4806,1.68221,-2.7241,0.480614,1.68167,-2.72412
1760679850542214991,-0.134771,1.22377,-2.72305,0.134797,1.22375,-2.72304,-0.480601,1.68221,-2.72409,0.480615,1.68167,-2.72412
1760679850543303683,-0.13477,1.22377,-2.72305,0.134796,1.22375,-2.72304,-0.480601,1.6822,-2.72409,0.480616,1.68166,-2.72412
1760679850544753728,-0.13477,1.22377,-2.72305,0.134796,1.22375,-2.72304,-0.480601,1.6822,-2.72409,0.480616,1.68166,-2.72412
1760679850545711843,-0.13477,1.22377,-2.72305,0.134796,1.22375,-2.72304,-0.480602,1.6822,-2.72409,0.480616,1.68166,-2.72412
1760679850546812096,-0.13477,1.22377,-2.72305,0.134796,1.22375,-2.72304,-0.480602,1.6822,-2.72409,0.480616,1.68166,-2.72412
1760679850547915616,-0.13477,1.22377,-2.72305,0.134796,1.22375,-2.72304,-0.480602,1.6822,-2.72409,0.480617,1.68166,-2.72412
1760679850549018484,-0.13477,1.22377,-2.72305,0.134795,1.22375,-2.72304,-0.480603,1.6822,-2.72409,0.480617,1.68166,-2.72412
1760679850550114399,-0.13477,1.22377,-2.72305,0.134795,1.22375,-2.72304,-0.480603,1.6822,-2.72409,0.480617,1.68166,-2.72412
1760679850551506565,-0.134769,1.22377,-2.72305,0.134795,1.22375,-2.72304,-0.480603,1.6822,-2.72409,0.480617,1.68166,-2.72412
1760679850552594616,-0.134769,1.22377,-2.72305,0.134795,1.22375,-2.72304,-0.480603,1.6822,-2.72409,0.480617,1.68166,-2.72412
1760679850553710348,-0.134769,1.22377,-2.72306,0.134795,1.22375,-2.72304,-0.480603,1.6822,-2.72409,0.480618,1.68166,-2.72412
1760679850554782719,-0.134769,1.22377,-2.72306,0.134795,1.22375,-2.72304,-0.480603,1.6822,-2.72409,0.480618,1.68166,-2.72412
1760679850555884956,-0.134769,1.22377,-2.72306,0.134795,1.22375,-2.72304,-0.480604,1.6822,-2.72409,0.480618,1.68166,-2.72412
1760679850557031617,-0.134769,1.22377,-2.72306,0.134794,1.22375,-2.72304,-0.480604,1.6822,-2.72409,0.480619,1.68166,-2.72412
1760679850561267528,-0.134769,1.22377,-2.72306,0.134794,1.22375,-2.72304,-0.480604,1.6822,-2.72409,0.480619,1.68166,-2.72412
1760679850563139553,-0.134768,1.22377,-2.72306,0.134794,1.22375,-2.72304,-0.480605,1.68219,-2.72409,0.480619,1.68165,-2.72412
1760679850563909521,-0.134768,1.22377,-2.72306,0.134794,1.22375,-2.72304,-0.480605,1.68219,-2.72409,0.48062,1.68165,-2.72412
1760679850565011668,-0.134768,1.22377,-2.72306,0.134793,1.22375,-2.72304,-0.480606,1.68219,-2.72409,0.48062,1.68165,-2.72412
1760679850566131318,-0.134768,1.22377,-2.72306,0.134793,1.22375,-2.72304,-0.480606,1.68219,-2.72409,0.48062,1.68165,-2.72412
1760679850567292667,-0.134767,1.22377,-2.72306,0.134793,1.22375,-2.72304,-0.480606,1.68219,-2.72409,0.480621,1.68165,-2.72412
1760679850568520733,-0.134767,1.22377,-2.72306,0.134793,1.22375,-2.72304,-0.480606,1.68219,-2.72409,0.480621,1.68165,-2.72412
1760679850569608042,-0.134767,1.22377,-2.72306,0.134793,1.22375,-2.72304,-0.480607,1.68219,-2.72409,0.480621,1.68165,-2.72412
1760679850570707884,-0.134767,1.22377,-2.72306,0.134793,1.22375,-2.72304,-0.480607,1.68219,-2.72409,0.480621,1.68165,-2.72412
1760679850571792749,-0.134767,1.22377,-2.72306,0.134792,1.22375,-2.72304,-0.480607,1.68219,-2.72409,0.480622,1.68165,-2.72412
1760679850572887993,-0.134767,1.22377,-2.72306,0.134792,1.22375,-2.72304,-0.480607,1.68219,-2.72409,0.480622,1.68165,-2.72412
1760679850573988687,-0.134767,1.22377,-2.72306,0.134792,1.22375,-2.72304,-0.480607,1.68219,-2.72409,0.480622,1.68165,-2.72412
1760679850575111733,-0.134766,1.22377,-2.72306,0.134792,1.22375,-2.72304,-0.480608,1.68219,-2.72409,0.480622,1.68165,-2.72412
1760679850576162743,-0.134766,1.22377,-2.72306,0.134792,1.22375,-2.72304,-0.480608,1.68219,-2.72409,0.480622,1.68165,-2.72412
1760679850577245173,-0.134766,1.22377,-2.72306,0.134792,1.22375,-2.72304,-0.480608,1.68218,-2.72409,0.480623,1.68164,-2.72412
1760679850578361236,-0.134766,1.22377,-2.72306,0.134792,1.22375,-2.72304,-0.480608,1.68218,-2.72409,0.480623,1.68164,-2.72412
1760679850579443957,-0.134766,1.22377,-2.72306,0.134791,1.22375,-2.72304,-0.480608,1.68218,-2.72409,0.480623,1.68164,-2.72412
1760679850580531877,-0.134766,1.22377,-2.72306,0.134791,1.22375,-2.72304,-0.480608,1.68218,-2.72409,0.480623,1.68164,-2.72412
1760679850581656186,-0.134766,1.22377,-2.72306,0.134791,1.22375,-2.72304,-0.480609,1.68218,-2.72409,0.480624,1.68164,-2.72412
1760679850582772990,-0.134766,1.22377,-2.72306,0.134791,1.22375,-2.72304,-0.480609,1.68218,-2.72409,0.480624,1.68164,-2.72412
1760679850583865399,-0.134765,1.22377,-2.72306,0.134791,1.22375,-2.72304,-0.480609,1.68218,-2.72409,0.480624,1.68164,-2.72412
1760679850584953630,-0.134765,1.22377,-2.72306,0.134791,1.22375,-2.72304,-0.48061,1.68218,-2.72409,0.480624,1.68164,-2.72412
1760679850586049535,-0.134765,1.22377,-2.72306,0.134791,1.22375,-2.72304,-0.48061,1.68218,-2.72409,0.480624,1.68164,-2.72412
1760679850587156030,-0.134765,1.22377,-2.72306,0.13479,1.22375,-2.72304,-0.48061,1.68218,-2.72409,0.480625,1.68164,-2.72412
1760679850588247807,-0.134765,1.22377,-2.72306,0.13479,1.22375,-2.72304,-0.48061,1.68218,-2.72409,0.480625,1.68164,-2.72412
1760679850589414386,-0.134765,1.22377,-2.72306,0.13479,1.22375,-2.72304,-0.48061,1.68218,-2.72409,0.480625,1.68164,-2.72412
1760679850590457261,-0.134765,1.22377,-2.72306,0.13479,1.22375,-2.72304,-0.48061,1.68218,-2.72409,0.480625,1.68164,-2.72412
1760679850591551443,-0.134764,1.22377,-2.72306,0.13479,1.22375,-2.72304,-0.480611,1.68218,-2.72409,0.480626,1.68164,-2.72412
1760679850592658670,-0.134764,1.22377,-2.72306,0.13479,1.22375,-2.72304,-0.480611,1.68218,-2.72409,0.480626,1.68164,-2.72412
1760679850593756949,-0.134764,1.22377,-2.72306,0.13479,1.22375,-2.72304,-0.480611,1.68218,-2.72409,0.480626,1.68164,-2.72412
1760679850594855770,-0.134764,1.22377,-2.72306,0.134789,1.22375,-2.72305,-0.480612,1.68217,-2.72409,0.480627,1.68163,-2.72412
1760679850595955092,-0.134764,1.22377,-2.72306,0.134789,1.22375,-2.72305,-0.480612,1.68217,-2.72409,0.480627,1.68163,-2.72412
1760679850597060355,-0.134764,1.22377,-2.72306,0.134789,1.22375,-2.72305,-0.480612,1.68217,-2.72409,0.480627,1.68163,-2.72412
1760679850598169435,-0.134764,1.22377,-2.72306,0.134789,1.22375,-2.72305,-0.480612,1.68217,-2.72409,0.480627,1.68163,-2.72412
1760679850602855378,-0.134763,1.22377,-2.72306,0.134789,1.22375,-2.72305,-0.480612,1.68217,-2.72409,0.480627,1.68163,-2.72412
1760679850603807591,-0.134763,1.22377,-2.72306,0.134788,1.22375,-2.72305,-0.480613,1.68217,-2.72409,0.480628,1.68163,-2.72412
1760679850604919186,-0.134763,1.22377,-2.72306,0.134788,1.22375,-2.72305,-0.480613,1.68217,-2.72409,0.480629,1.68163,-2.72412
1760679850606039998,-0.134763,1.22377,-2.72306,0.134788,1.22375,-2.72305,-0.480613,1.68217,-2.72409,0.480629,1.68163,-2.72412
1760679850607150852,-0.134763,1.22377,-2.72306,0.134788,1.22375,-2.72305,-0.480613,1.68217,-2.72409,0.480629,1.68163,-2.72412
1760679850608264240,-0.134762,1.22377,-2.72306,0.134788,1.22375,-2.72305,-0.480614,1.68217,-2.72409,0.480629,1.68163,-2.72412
1760679850609356258,-0.134762,1.22377,-2.72306,0.134788,1.22375,-2.72305,-0.480614,1.68217,-2.72409,0.480629,1.68163,-2.72412
1760679850610457713,-0.134762,1.22377,-2.72306,0.134788,1.22375,-2.72305,-0.480614,1.68217,-2.72409,0.480629,1.68163,-2.72412
1760679850611544972,-0.134762,1.22377,-2.72306,0.134787,1.22375,-2.72305,-0.480615,1.68216,-2.72409,0.48063,1.68162,-2.72412
1760679850612730126,-0.134762,1.22377,-2.72306,0.134787,1.22375,-2.72305,-0.480615,1.68216,-2.72409,0.48063,1.68162,-2.72412
1760679850614388927,-0.134762,1.22377,-2.72306,0.134787,1.22375,-2.72305,-0.480615,1.68216,-2.72409,0.48063,1.68162,-2.72412
1760679850615598237,-0.134762,1.22377,-2.72306,0.134787,1.22375,-2.72305,-0.480615,1.68216,-2.72409,0.48063,1.68162,-2.72412
1760679850616570408,-0.134761,1.22377,-2.72306,0.134787,1.22375,-2.72305,-0.480615,1.68216,-2.72409,0.480631,1.68162,-2.72412
1760679850617670091,-0.134761,1.22377,-2.72306,0.134787,1.22375,-2.72305,-0.480616,1.68216,-2.72409,0.480631,1.68162,-2.72412
1760679850618758261,-0.134761,1.22377,-2.72306,0.134787,1.22375,-2.72305,-0.480616,1.68216,-2.72409,0.480631,1.68162,-2.72412
1760679850619871649,-0.134761,1.22377,-2.72306,0.134786,1.22375,-2.72305,-0.480616,1.68216,-2.72409,0.480632,1.68162,-2.72412
1760679850621012710,-0.134761,1.22377,-2.72306,0.134786,1.22375,-2.72305,-0.480617,1.68216,-2.72409,0.480632,1.68162,-2.72412
1760679850622091513,-0.134761,1.22377,-2.72306,0.134786,1.22375,-2.72305,-0.480617,1.68216,-2.72409,0.480632,1.68162,-2.72412
1760679850623163773,-0.13476,1.22377,-2.72306,0.134786,1.22375,-2.72305,-0.480617,1.68216,-2.72409,0.480632,1.68162,-2.72412
1760679850624274657,-0.13476,1.22377,-2.72306,0.134786,1.22375,-2.72305,-0.480617,1.68216,-2.72409,0.480632,1.68162,-2.72412
1760679850625363589,-0.13476,1.22377,-2.72306,0.134786,1.22375,-2.72305,-0.480617,1.68216,-2.72409,0.480632,1.68162,-2.72412
1760679850626459554,-0.13476,1.22377,-2.72306,0.134786,1.22375,-2.72305,-0.480617,1.68216,-2.72409,0.480633,1.68162,-2.72412
1760679850627584113,-0.13476,1.22377,-2.72306,0.134786,1.22375,-2.72305,-0.480617,1.68216,-2.72409,0.480633,1.68162,-2.72412
1760679850628684167,-0.13476,1.22377,-2.72306,0.134785,1.22375,-2.72305,-0.480618,1.68216,-2.72409,0.480633,1.68161,-2.72412
1760679850629800420,-0.13476,1.22377,-2.72306,0.134785,1.22375,-2.72305,-0.480618,1.68215,-2.72409,0.480634,1.68161,-2.72411
1760679850630888100,-0.134759,1.22377,-2.72306,0.134785,1.22375,-2.72305,-0.480619,1.68215,-2.72409,0.480634,1.68161,-2.72411
1760679850631978765,-0.134759,1.22377,-2.72306,0.134785,1.22375,-2.72305,-0.480619,1.68215,-2.72409,0.480634,1.68161,-2.72411
1760679850633092985,-0.134759,1.22377,-2.72306,0.134785,1.22375,-2.72305,-0.480619,1.68215,-2.72409,0.480634,1.68161,-2.72411
1760679850634158002,-0.134759,1.22377,-2.72306,0.134785,1.22375,-2.72305,-0.480619,1.68215,-2.72409,0.480634,1.68161,-2.72411
1760679850635265188,-0.134759,1.22377,-2.72306,0.134784,1.22375,-2.72305,-0.480619,1.68215,-2.72409,0.480635,1.68161,-2.72411
1760679850636359510,-0.134759,1.22377,-2.72306,0.134784,1.22375,-2.72305,-0.480619,1.68215,-2.72409,0.480635,1.68161,-2.72411
1760679850637449404,-0.134759,1.22377,-2.72306,0.134784,1.22375,-2.72305,-0.480619,1.68215,-2.72409,0.480635,1.68161,-2.72411
1760679850638588230,-0.134759,1.22377,-2.72306,0.134784,1.22375,-2.72305,-0.48062,1.68215,-2.72409,0.480635,1.68161,-2.72411
1760679850639646895,-0.134758,1.22377,-2.72306,0.134784,1.22375,-2.72305,-0.48062,1.68215,-2.72409,0.480636,1.68161,-2.72411
1760679850640746056,-0.134758,1.22377,-2.72306,0.134784,1.22375,-2.72305,-0.48062,1.68215,-2.72409,0.480636,1.68161,-2.72411
1760679850641852772,-0.134758,1.22377,-2.72306,0.134784,1.22375,-2.72305,-0.48062,1.68215,-2.72409,0.480636,1.68161,-2.72411
1760679850642958235,-0.134758,1.22377,-2.72306,0.134783,1.22375,-2.72305,-0.480621,1.68215,-2.72409,0.480637,1.68161,-2.72411
1760679850644049923,-0.134758,1.22377,-2.72306,0.134783,1.22375,-2.72305,-0.480621,1.68215,-2.72409,0.480637,1.68161,-2.72411
1760679850645151458,-0.134758,1.22377,-2.72306,0.134783,1.22375,-2.72305,-0.480621,1.68214,-2.72409,0.480637,1.6816,-2.72411
1760679850646246051,-0.134758,1.22377,-2.72306,0.134783,1.22375,-2.72305,-0.480621,1.68214,-2.72409,0.480637,1.6816,-2.72411
1760679850647343830,-0.134758,1.22377,-2.72306,0.134783,1.22375,-2.72305,-0.480621,1.68214,-2.72409,0.480637,1.6816,-2.72411
1760679850648444113,-0.134757,1.22377,-2.72306,0.134783,1.22375,-2.72305,-0.480622,1.68214,-2.72409,0.480637,1.6816,-2.72411
1760679850649536322,-0.134757,1.22377,-2.72306,0.134783,1.22375,-2.72305,-0.480622,1.68214,-2.72409,0.480637,1.6816,-2.72411
1760679850650648527,-0.134757,1.22377,-2.72306,0.134783,1.22375,-2.72305,-0.480622,1.68214,-2.72409,0.480638,1.6816,-2.72411
1760679850651741307,-0.134757,1.22377,-2.72306,0.134782,1.22375,-2.72305,-0.480622,1.68214,-2.72409,0.480638,1.6816,-2.72411
1760679850652830639,-0.134757,1.22377,-2.72306,0.134782,1.22375,-2.72305,-0.480623,1.68214,-2.72409,0.480639,1.6816,-2.72411
1760679850653920062,-0.134757,1.22377,-2.72306,0.134782,1.22375,-2.72305,-0.480623,1.68214,-2.72409,0.480639,1.6816,-2.72411
1760679850655017040,-0.134756,1.22377,-2.72306,0.134782,1.22375,-2.72305,-0.480623,1.68214,-2.72409,0.480639,1.6816,-2.72411
1760679850656135998,-0.134756,1.22377,-2.72306,0.134782,1.22375,-2.72305,-0.480623,1.68214,-2.72409,0.480639,1.6816,-2.72411
1760679850657253414,-0.134756,1.22377,-2.72306,0.134782,1.22375,-2.72305,-0.480623,1.68214,-2.72409,0.480639,1.6816,-2.72411
1760679850658340723,-0.134756,1.22377,-2.72306,0.134782,1.22375,-2.72305,-0.480623,1.68214,-2.72409,0.480639,1.6816,-2.72411
1760679850659432521,-0.134756,1.22377,-2.72306,0.134782,1.22375,-2.72305,-0.480623,1.68214,-2.72409,0.480639,1.6816,-2.72411
1760679850660528696,-0.134756,1.22377,-2.72306,0.134781,1.22375,-2.72305,-0.480624,1.68214,-2.72409,0.48064,1.6816,-2.72411
1760679850661647745,-0.134756,1.22377,-2.72306,0.134781,1.22375,-2.72305,-0.480624,1.68214,-2.72409,0.48064,1.68159,-2.72411
1760679850662731808,-0.134756,1.22377,-2.72306,0.134781,1.22375,-2.72305,-0.480624,1.68214,-2.72409,0.48064,1.68159,-2.72411
1760679850663836640,-0.134755,1.22377,-2.72306,0.134781,1.22375,-2.72305,-0.480625,1.68213,-2.72409,0.480641,1.68159,-2.72411
1760679850664933407,-0.134755,1.22377,-2.72306,0.134781,1.22375,-2.72305,-0.480625,1.68213,-2.72409,0.480641,1.68159,-2.72411
1760679850666039622,-0.134755,1.22377,-2.72306,0.134781,1.22375,-2.72305,-0.480625,1.68213,-2.72409,0.480641,1.68159,-2.72411
1760679850667138182,-0.134755,1.22377,-2.72306,0.13478,1.22375,-2.72305,-0.480625,1.68213,-2.72409,0.480641,1.68159,-2.72411
1760679850668230560,-0.134755,1.22377,-2.72306,0.13478,1.22375,-2.72305,-0.480625,1.68213,-2.72409,0.480641,1.68159,-2.72411
1760679850669360420,-0.134755,1.22377,-2.72306,0.13478,1.22375,-2.72305,-0.480625,1.68213,-2.72409,0.480641,1.68159,-2.72411
1760679850670495169,-0.134755,1.22377,-2.72306,0.13478,1.22375,-2.72305,-0.480626,1.68213,-2.72409,0.480642,1.68159,-2.72411
1760679850671633354,-0.134755,1.22377,-2.72306,0.13478,1.22375,-2.72305,-0.480626,1.68213,-2.72409,0.480642,1.68159,-2.72411
1760679850672772741,-0.134754,1.22377,-2.72306,0.13478,1.22375,-2.72305,-0.480626,1.68213,-2.72409,0.480642,1.68159,-2.72411
1760679850673919122,-0.134754,1.22377,-2.72306,0.13478,1.22375,-2.72305,-0.480627,1.68213,-2.72409,0.480643,1.68159,-2.72411
1760679850675018955,-0.134754,1.22377,-2.72306,0.134779,1.22375,-2.72305,-0.480627,1.68213,-2.72409,0.480643,1.68159,-2.72411
1760679850676124548,-0.134754,1.22377,-2.72306,0.134779,1.22375,-2.72305,-0.480627,1.68213,-2.72409,0.480643,1.68159,-2.72411
1760679850677231214,-0.134754,1.22377,-2.72306,0.134779,1.22375,-2.72305,-0.480627,1.68213,-2.72409,0.480644,1.68159,-2.72411
1760679850678339793,-0.134754,1.22377,-2.72306,0.134779,1.22375,-2.72305,-0.480627,1.68213,-2.72409,0.480644,1.68159,-2.72411
1760679850684457046,-0.134753,1.22377,-2.72306,0.134778,1.22376,-2.72305,-0.480628,1.68212,-2.72409,0.480645,1.68158,-2.72411
1760679850685292017,-0.134753,1.22377,-2.72306,0.134778,1.22376,-2.72305,-0.480629,1.68212,-2.72409,0.480645,1.68158,-2.72411
1760679850686549188,-0.134753,1.22377,-2.72306,0.134778,1.22376,-2.72305,-0.480629,1.68212,-2.72409,0.480645,1.68158,-2.72411
1760679850687497173,-0.134753,1.22377,-2.72306,0.134778,1.22376,-2.72305,-0.480629,1.68212,-2.72409,0.480645,1.68158,-2.72411
1760679850688578020,-0.134752,1.22377,-2.72306,0.134778,1.22376,-2.72305,-0.480629,1.68212,-2.72409,0.480646,1.68158,-2.72411
1760679850689681329,-0.134752,1.22377,-2.72306,0.134778,1.22376,-2.72305,-0.48063,1.68212,-2.72409,0.480646,1.68158,-2.72411
1760679850689716656,-0.134752,1.22377,-2.72306,0.134778,1.22376,-2.72305,-0.48063,1.68212,-2.72409,0.480646,1.68158,-2.72411
1760679850690833400,-0.134752,1.22377,-2.72306,0.134777,1.22376,-2.72305,-0.48063,1.68212,-2.72409,0.480646,1.68158,-2.72411
1760679850691941358,-0.134752,1.22377,-2.72306,0.134777,1.22376,-2.72305,-0.48063,1.68212,-2.72409,0.480646,1.68158,-2.72411
1760679850693027585,-0.134752,1.22377,-2.72306,0.134777,1.22376,-2.72305,-0.48063,1.68212,-2.72409,0.480647,1.68158,-2.72411
1760679850694130403,-0.134752,1.22377,-2.72306,0.134777,1.22376,-2.72305,-0.48063,1.68212,-2.72409,0.480647,1.68158,-2.72411
1760679850695223814,-0.134751,1.22377,-2.72306,0.134777,1.22376,-2.72305,-0.480631,1.68212,-2.72409,0.480647,1.68157,-2.72411
1760679850696314960,-0.134751,1.22377,-2.72306,0.134777,1.22376,-2.72305,-0.480631,1.68212,-2.72409,0.480647,1.68157,-2.72411
1760679850697401497,-0.134751,1.22377,-2.72306,0.134777,1.22376,-2.72305,-0.480631,1.68211,-2.72409,0.480648,1.68157,-2.72411
1760679850698498875,-0.134751,1.22377,-2.72306,0.134777,1.22376,-2.72305,-0.480631,1.68211,-2.72409,0.480648,1.68157,-2.72411
1760679850699589110,-0.134751,1.22377,-2.72306,0.134777,1.22376,-2.72305,-0.480631,1.68211,-2.72409,0.480648,1.68157,-2.72411
1760679850700694092,-0.134751,1.22377,-2.72306,0.134776,1.22376,-2.72305,-0.480632,1.68211,-2.72409,0.480648,1.68157,-2.72411
1760679850701804425,-0.134751,1.22377,-2.72306,0.134776,1.22376,-2.72305,-0.480632,1.68211,-2.72409,0.480648,1.68157,-2.72411
1760679850702916080,-0.13475,1.22378,-2.72306,0.134776,1.22376,-2.72305,-0.480632,1.68211,-2.72409,0.480649,1.68157,-2.72411
1760679850704026462,-0.13475,1.22378,-2.72306,0.134776,1.22376,-2.72305,-0.480632,1.68211,-2.72409,0.480649,1.68157,-2.72411
1760679850705143578,-0.13475,1.22378,-2.72306,0.134776,1.22376,-2.72305,-0.480633,1.68211,-2.72409,0.480649,1.68157,-2.72411
1760679850706267987,-0.13475,1.22378,-2.72306,0.134776,1.22376,-2.72305,-0.480633,1.68211,-2.72409,0.480649,1.68157,-2.72411
1760679850707427553,-0.13475,1.22378,-2.72306,0.134775,1.22376,-2.72305,-0.480633,1.68211,-2.72408,0.48065,1.68157,-2.72411
1760679850708526403,-0.13475,1.22378,-2.72306,0.134775,1.22376,-2.72305,-0.480633,1.68211,-2.72408,0.48065,1.68157,-2.72411
1760679850709661883,-0.13475,1.22378,-2.72306,0.134775,1.22376,-2.72305,-0.480633,1.68211,-2.72408,0.48065,1.68157,-2.72411
1760679850710764181,-0.13475,1.22378,-2.72306,0.134775,1.22376,-2.72305,-0.480633,1.68211,-2.72408,0.48065,1.68157,-2.72411
1760679850711873020,-0.134749,1.22378,-2.72306,0.134775,1.22376,-2.72305,-0.480634,1.68211,-2.72408,0.480651,1.68157,-2.72411
1760679850712995997,-0.134749,1.22378,-2.72306,0.134775,1.22376,-2.72305,-0.480634,1.68211,-2.72408,0.480651,1.68156,-2.72411
1760679850714139873,-0.134749,1.22378,-2.72306,0.134775,1.22376,-2.72305,-0.480634,1.68211,-2.72408,0.480651,1.68156,-2.72411
1760679850715261927,-0.134749,1.22378,-2.72306,0.134774,1.22376,-2.72305,-0.480635,1.6821,-2.72408,0.480651,1.68156,-2.72411
1760679850716392378,-0.134749,1.22378,-2.72306,0.134774,1.22376,-2.72305,-0.480635,1.6821,-2.72408,0.480651,1.68156,-2.72411
1760679850717534902,-0.134749,1.22378,-2.72306,0.134774,1.22376,-2.72305,-0.480635,1.6821,-2.72408,0.480652,1.68156,-2.72411
1760679850718691431,-0.134749,1.22378,-2.72306,0.134774,1.22376,-2.72305,-0.480635,1.6821,-2.72408,0.480652,1.68156,-2.72411
1760679850718754401,-0.134748,1.22378,-2.72306,0.134774,1.22376,-2.72305,-0.480635,1.6821,-2.72408,0.480652,1.68156,-2.72411
1760679850719867929,-0.134748,1.22378,-2.72306,0.134774,1.22376,-2.72305,-0.480635,1.6821,-2.72408,0.480652,1.68156,-2.72411
1760679850720972080,-0.134748,1.22378,-2.72306,0.134774,1.22376,-2.72305,-0.480635,1.6821,-2.72408,0.480652,1.68156,-2.72411
1760679850722093113,-0.134748,1.22378,-2.72306,0.134774,1.22376,-2.72305,-0.480636,1.6821,-2.72408,0.480653,1.68156,-2.72411
1760679850723169772,-0.134748,1.22378,-2.72306,0.134774,1.22376,-2.72305,-0.480636,1.6821,-2.72408,0.480653,1.68156,-2.72411
1760679850724286496,-0.134748,1.22378,-2.72306,0.134773,1.22376,-2.72305,-0.480636,1.6821,-2.72408,0.480653,1.68156,-2.72411
1760679850725389996,-0.134748,1.22378,-2.72306,0.134773,1.22376,-2.72305,-0.480636,1.6821,-2.72408,0.480653,1.68156,-2.72411
1760679850726494197,-0.134748,1.22378,-2.72306,0.134773,1.22376,-2.72305,-0.480636,1.6821,-2.72408,0.480653,1.68156,-2.72411
1760679850727602746,-0.134747,1.22378,-2.72306,0.134773,1.22376,-2.72305,-0.480637,1.6821,-2.72408,0.480654,1.68156,-2.72411
1760679850728705263,-0.134747,1.22378,-2.72306,0.134773,1.22376,-2.72305,-0.480637,1.6821,-2.72408,0.480654,1.68156,-2.72411
1760679850729807480,-0.134747,1.22378,-2.72306,0.134773,1.22376,-2.72305,-0.480637,1.6821,-2.72408,0.480654,1.68155,-2.72411
1760679850730911972,-0.134747,1.22378,-2.72306,0.134772,1.22376,-2.72305,-0.480638,1.68209,-2.72408,0.480655,1.68155,-2.72411
1760679850732012406,-0.134747,1.22378,-2.72306,0.134772,1.22376,-2.72305,-0.480638,1.68209,-2.72408,0.480655,1.68155,-2.72411
1760679850733131014,-0.134747,1.22378,-2.72306,0.134772,1.22376,-2.72305,-0.480638,1.68209,-2.72408,0.480655,1.68155,-2.72411
1760679850734241517,-0.134747,1.22378,-2.72306,0.134772,1.22376,-2.72305,-0.480638,1.68209,-2.72408,0.480655,1.68155,-2.72411
1760679850735348473,-0.134746,1.22378,-2.72306,0.134772,1.22376,-2.72305,-0.480638,1.68209,-2.72408,0.480655,1.68155,-2.72411
1760679850736456120,-0.134746,1.22378,-2.72306,0.134772,1.22376,-2.72305,-0.480638,1.68209,-2.72408,0.480655,1.68155,-2.72411
1760679850737563587,-0.134746,1.22378,-2.72306,0.134772,1.22376,-2.72305,-0.480639,1.68209,-2.72408,0.480656,1.68155,-2.72411
1760679850742074830,-0.134746,1.22378,-2.72306,0.134772,1.22376,-2.72305,-0.480639,1.68209,-2.72408,0.480656,1.68155,-2.72411
1760679850743945422,-0.134746,1.22378,-2.72306,0.134771,1.22376,-2.72305,-0.480639,1.68209,-2.72408,0.480656,1.68155,-2.72411
1760679850745956269,-0.134746,1.22378,-2.72306,0.134771,1.22376,-2.72305,-0.480639,1.68209,-2.72408,0.480657,1.68155,-2.72411
1760679850747062715,-0.134745,1.22378,-2.72306,0.13477,1.22376,-2.72305,-0.480641,1.68209,-2.72408,0.480658,1.68154,-2.72411
1760679850748161245,-0.134745,1.22378,-2.72306,0.13477,1.22376,-2.72305,-0.480641,1.68209,-2.72408,0.480658,1.68154,-2.72411
1760679850749262079,-0.134745,1.22378,-2.72306,0.13477,1.22376,-2.72305,-0.480641,1.68208,-2.72408,0.480658,1.68154,-2.72411
1760679850750365849,-0.134745,1.22378,-2.72306,0.13477,1.22376,-2.72305,-0.480641,1.68208,-2.72408,0.480658,1.68154,-2.72411
1760679850751581040,-0.134744,1.22378,-2.72306,0.13477,1.22376,-2.72305,-0.480641,1.68208,-2.72408,0.480659,1.68154,-2.72411
1760679850752717382,-0.134744,1.22378,-2.72306,0.13477,1.22376,-2.72305,-0.480641,1.68208,-2.72408,0.480659,1.68154,-2.72411
1760679850752754142,-0.134744,1.22378,-2.72306,0.13477,1.22376,-2.72305,-0.480641,1.68208,-2.72408,0.480659,1.68154,-2.72411
1760679850753828616,-0.134744,1.22378,-2.72306,0.13477,1.22376,-2.72305,-0.480642,1.68208,-2.72408,0.480659,1.68154,-2.72411
1760679850754924371,-0.134744,1.22378,-2.72306,0.13477,1.22376,-2.72305,-0.480642,1.68208,-2.72408,0.480659,1.68154,-2.72411
1760679850756095358,-0.134744,1.22378,-2.72306,0.134769,1.22376,-2.72305,-0.480642,1.68208,-2.72408,0.48066,1.68154,-2.72411
1760679850757164673,-0.134744,1.22378,-2.72306,0.134769,1.22376,-2.72305,-0.480642,1.68208,-2.72408,0.48066,1.68154,-2.72411
1760679850758319771,-0.134744,1.22378,-2.72306,0.134769,1.22376,-2.72305,-0.480642,1.68208,-2.72408,0.48066,1.68154,-2.72411
1760679850759419212,-0.134744,1.22378,-2.72306,0.134769,1.22376,-2.72305,-0.480643,1.68208,-2.72408,0.48066,1.68154,-2.72411
1760679850760522231,-0.134744,1.22378,-2.72306,0.134769,1.22376,-2.72305,-0.480643,1.68208,-2.72408,0.48066,1.68154,-2.72411
1760679850761636000,-0.134743,1.22378,-2.72306,0.134769,1.22376,-2.72305,-0.480643,1.68208,-2.72408,0.480661,1.68154,-2.72411
